!!!!SEGMENT: pl-sa--287-a-vii-47_lechleitner-ferdinand-simon--ave-maria.krn
!!!cenid: 17xx:443
!!!COM: Lechleitner, Ferdinand Simon
!!!COM-rismid: pe30001903
!!!CDT: ~1700-~1800
!!!CNT:
!!!OTL: Ave Maria
!!!PDT: 1741
!!!AGN:
!!!SMS-siglum: PL-SA
!!!SMS-shelfmark: 287/A VII 47
!!!SMS-shelfwork: W
!!!NIFC-rismid: 1001039783
!!!URL-scan: http://bc.bdsandomierz.pl/dlibra/publication/1783/edition/1751/content
!!!ONB-nifc:
!!!AIN: 1 alto 1 empty 2 liuto 1 tenor 1 viola 2 violn 1 vox
!!!key:
**kern	**fba	**dynam	**kern	**dynam	**kern	**dynam	**kern	**text	**dynam	**kern	**text	**dynam	**kern	**text	**dynam	**kern	**text	**dynam	**kern	**kern
*part9	*	*part9	*part8	*part8	*part7	*part7	*part6	*part6	*part6	*part5	*part5	*part5	*part4	*part4	*part4	*part3	*part3	*part3	*part2	*part1
*staff9	*	*	*staff8	*	*staff7	*	*staff6	*staff6	*	*staff5	*staff5	*	*staff4	*staff4	*	*staff3	*staff3	*	*staff2	*staff1
*Iviola	*	*	*Ivioln	*	*Ivioln	*	*Iempty	*	*	*Itenor	*	*	*Ialto	*	*	*Ivox	*	*	*Iliuto	*Iliuto
*I"Bafso Viola	*	*	*I"Violino 2do	*	*I"Violino 1mo	*	*I"Bafso	*	*	*I"Tenore	*	*	*I"Alto	*	*	*I"Canto	*	*	*I"Lituo II	*I"Lituo I
*I'Bas	*	*	*I'Vln. II	*	*I'Vln. I	*	*I'B	*	*	*I'T	*	*	*I'A	*	*	*I'C	*	*	*I'Lit. II	*I'Lit. I
*clefF4	*	*	*clefG2	*	*clefG2	*	*clefF4	*	*	*clefC4	*	*	*clefC3	*	*	*clefC1	*	*	*clefG2	*clefG2
*	*	*	*	*	*	*	*	*	*	*	*	*	*	*	*	*	*	*	*ITrd-2c-3	*ITrd-2c-3
*k[b-e-a-]	*	*	*k[b-e-a-]	*	*k[b-e-a-]	*	*k[b-e-e-a-]	*	*	*k[b-e-a-]	*	*	*k[b-e-a-]	*	*	*k[b-e-a-]	*	*	*k[b-e-a-]	*k[b-e-a-]
*E-:	*	*	*E-:	*	*E-:	*	*E-:	*	*	*E-:	*	*	*E-:	*	*	*E-:	*	*	*	*
*M4/4	*	*	*M4/4	*	*M4/4	*	*M4/4	*	*	*M4/4	*	*	*M4/4	*	*	*M4/4	*	*	*M4/4	*M4/4
*met(c)	*	*	*met(c)	*	*met(c)	*	*met(c)	*	*	*met(c)	*	*	*met(c)	*	*	*met(c)	*	*	*met(c)	*met(c)
=1	=1	=1	=1	=1	=1	=1	=1	=1	=1	=1	=1	=1	=1	=1	=1	=1	=1	=1	=1	=1
*	*	*	*	*below	*	*below	*	*	*	*	*	*	*	*	*	*2\right	*	*	*	*
!LO:SIC:s=:v:wszystkie laseczki w głosie z pr. str.	!	!	!LO:TX:a:t=Tut&colon;(ti)	!	!LO:SIC:s=:v:wsztystkie półnuty z laską w dół&colon; laska z pr. str.	!	!	!	!	!	!	!	!	!	!	!	!	!	!	!
!LO:TX:a:t=Solo	!	!	!LO:SIC:s=:v:wsztystkie półnuty z laską w dół&colon; laska z pr. str.	!	!LO:TX:rj:b:i:t=Ave Maria	!	!	!	!	!LO:SIC:s=:v:wszystkie laseczki w głosie z pr. str.	!	!	!LO:SIC:s=:v:wszystkie laseczki w głosie z pr. str.	!	!	!	!	!	!LO:SIC:s=:v:wsztystkie półnuty z laską w dół&colon; laska z pr. str.	!LO:SIC:s=:v:wsztystkie półnuty z laską w dół&colon; laska z pr. str.
!LO:TX:rj:b:i:t=Ave Maria	!	!	!LO:TX:b:i:t=Ave Maria	!	!LO:TX:a:t=Tutti	!	!LO:SIC:s=:v:wszystkie laseczki w głosie z pr. str	!	!	!LO:TX:a:t=Tut(ti)&colon;	!	!	!LO:TX:a:t=Tut(ti)	!	!	!	!	!	!LO:TX:b:i:t=Ave Maria	!LO:TX:b:i:t=Ave Maria
8E-\L	.	.	0r	.	0r	.	0r	.	.	0r	.	.	0r	.	.	2b-\	A-	.	0r	0r
8F\	.	.	.	.	.	.	.	.	.	.	.	.	.	.	.	.	.	.	.	.
8G\	.	.	.	.	.	.	.	.	.	.	.	.	.	.	.	.	.	.	.	.
8D\J	6	.	.	.	.	.	.	.	.	.	.	.	.	.	.	.	.	.	.	.
8C/L	3	.	.	.	.	.	.	.	.	.	.	.	.	.	.	4e-/	-ve	.	.	.
8D/	.	.	.	.	.	.	.	.	.	.	.	.	.	.	.	.	.	.	.	.
8E-/	.	.	.	.	.	.	.	.	.	.	.	.	.	.	.	8r	.	.	.	.
8GG/J	.	.	.	.	.	.	.	.	.	.	.	.	.	.	.	8b-\	a-	.	.	.
=2	=2	=2	=2	=2	=2	=2	=2	=2	=2	=2	=2	=2	=2	=2	=2	=2	=2	=2	=2	=2
!LO:TX:a:t=P:problem=mixed beam	!	!	!	!	!	!	!	!	!	!	!	!	!	!	!	!	!	!	!	!
8A-\L	.	.	.	.	.	.	.	.	.	.	.	.	.	.	.	8cc\	-ve	.	.	.
8E-\	.	.	.	.	.	.	.	.	.	.	.	.	.	.	.	8b-\	ma-	.	.	.
8F\	3	.	.	.	.	.	.	.	.	.	.	.	.	.	.	4a-\	-ri-	.	.	.
8BB-/J	7	.	.	.	.	.	.	.	.	.	.	.	.	.	.	.	.	.	.	.
8E-\L	.	.	.	.	.	.	.	.	.	.	.	.	.	.	.	4g/	-a	.	.	.
8G\	6	.	.	.	.	.	.	.	.	.	.	.	.	.	.	.	.	.	.	.
8A-\	.	.	.	.	.	.	.	.	.	.	.	.	.	.	.	4r	.	.	.	.
8B-\J	.	.	.	.	.	.	.	.	.	.	.	.	.	.	.	.	.	.	.	.
=3	=3	=3	=3	=3	=3	=3	=3	=3	=3	=3	=3	=3	=3	=3	=3	=3	=3	=3	=3	=3
!LO:TX:b:t=tut(ti)&colon;	!	!	!LO:SIC:s=:v:brak kreski takt.	!	!LO:SIC:s=:v:brak kreski takt.	!	!	!	!	!	!	!	!	!	!	!	!	!	!	!
8E-\L	.	.	4.ee-\	.	4.gg\	.	(8E-\L	A-	.	4.B-\	A-	.	4.g\	A-	.	4.b-\	a-	.	4.gg\	4.bb-\
8F\	.	.	.	.	.	.	8F\J)	.	.	.	.	.	.	.	.	.	.	.	.	.
8G\	.	.	.	.	.	.	(8G\L	-ve-	.	.	.	.	.	.	.	.	.	.	.	.
!	!	!	!LO:SIC:s=:v:ogonek z l. str.	!	!	!	!	!	!	!	!	!	!	!	!	!	!	!	!	!
8D\J	6	.	8ff\	.	8bb-\	.	8D\J)	.	.	8B-\	-ve	.	8f\	-ve	.	8b-\	-ve	.	8ff\	8bb-\
8C/L	-	.	4ee-\	.	4gg\	.	(8C/L	-a-	.	4e-\	a-	.	4e-\	a-	.	4cc\	a-	.	16ee-\LL	16gg\LL
.	.	.	.	.	.	.	.	.	.	.	.	.	.	.	.	.	.	.	16ff\	16aa-\
8D/	.	.	.	.	.	.	8D/J)	.	.	.	.	.	.	.	.	.	.	.	16ee-\	16gg\
.	.	.	.	.	.	.	.	.	.	.	.	.	.	.	.	.	.	.	16b-\JJ	16ff\JJ
!	!	!	!	!	!	!	!	!	!	!	!	!	!	!	!	!	!	!	!LO:TX:a:t=P:problem=mixed beam	!
8E-/	.	.	8ee-\L	.	8gg\L	.	8E-\	-ve	.	8e-\	-ve	.	8e-\	-ve	.	8cc\	-ve	.	8g/L	8ee-\L
8GG/J	6	.	8b-\J	.	8gg\J	.	8G\	a-	.	8e-\	a-	.	8e-\	a-	.	8b-\	a-	.	8ee-\J	8bb-\J
=4	=4	=4	=4	=4	=4	=4	=4	=4	=4	=4	=4	=4	=4	=4	=4	=4	=4	=4	=4	=4
!LO:TX:a:t=P:problem=mixed beam	!	!	!	!	!	!	!	!	!	!	!	!	!	!	!	!	!	!	!	!
8A-\L	.	.	8cc\L	.	8ee-\L	.	8A-\	-ve-	.	8c\	-ve	.	8e-\	-ve	.	8cc\	-ve	.	8aa-\L	8ccc\L
8E-\	.	.	8ee-\	.	8gg\J	.	8E-\	-ma-	.	8B-\	ma-	.	8g\	ma-	.	8ee-\	ma-	.	8gg\J	8bb-\J
!	!	!	!	!	!	!	!LO:TX:a:t=P:problem=mixed beam	!	!	!	!	!	!	!	!	!	!	!	!	!
8B-\	.	.	8ee-\	.	8ff\L	.	8B-\L	-ri-	.	4B-\	-ri-	.	4f\	-ri-	.	(8ee-\L	-ri-	.	16ff\LL	16aa-\LL
.	.	.	.	.	.	.	.	.	.	.	.	.	.	.	.	.	.	.	16aa-\	16ccc\
8BB-/J	7 4	.	8ff\J	.	8bb-\J	.	8BB-/J	.	.	.	.	.	.	.	.	8dd\J)	.	.	16gg\	16bb-\
.	x 3	.	.	.	.	.	.	.	.	.	.	.	.	.	.	.	.	.	16ff\JJ	16aa-\JJ
*	*	*	*2\right	*	*2\right	*	*2\right	*	*	*2\right	*	*	*2\right	*	*	*	*	*	*2\right	*2\right
8E-\L	.	.	2gg\	.	2bb-\	.	2E-\	-a	.	2B-\	-a	.	2g\	-a	.	2ee-\	-a	.	2ee-\	2gg\
8F\	.	.	.	.	.	.	.	.	.	.	.	.	.	.	.	.	.	.	.	.
8G\	.	.	.	.	.	.	.	.	.	.	.	.	.	.	.	.	.	.	.	.
8An\J	.	.	.	.	.	.	.	.	.	.	.	.	.	.	.	.	.	.	.	.
=5	=5	=5	=5	=5	=5	=5	=5	=5	=5	=5	=5	=5	=5	=5	=5	=5	=5	=5	=5	=5
!LO:TX:b:i:t=solo	!	!	!	!	!	!	!	!	!	!	!	!	!LO:TX:a:t=Soli	!	!	!LO:TX:a:t=Solo	!	!	!	!
8B-\L	.	.	0r	.	0r	.	0r	.	.	(4.B-\	a-	.	2f\	A-	.	(4.dd\	a-	.	0r	0r
8c\	.	.	.	.	.	.	.	.	.	.	.	.	.	.	.	.	.	.	.	.
8d\	.	.	.	.	.	.	.	.	.	.	.	.	.	.	.	.	.	.	.	.
8An\J	6	.	.	.	.	.	.	.	.	8c\)	.	.	.	.	.	8cc\)	.	.	.	.
8G\L	-	.	.	.	.	.	.	.	.	4d\	-ve	.	4B-/	-ve	.	4b-\	-ve	.	.	.
8An\	.	.	.	.	.	.	.	.	.	.	.	.	.	.	.	.	.	.	.	.
8B-\	.	.	.	.	.	.	.	.	.	8r	.	.	8r	.	.	8r	.	.	.	.
8BB-\J	6	.	.	.	.	.	.	.	.	8d\	a-	.	8f\	a-	.	8b-\	a-	.	.	.
!LO:LB:g=original	!	!	!	!	!	!	!	!	!	!	!	!	!	!	!	!	!	!	!	!
=6	=6	=6	=6	=6	=6	=6	=6	=6	=6	=6	=6	=6	=6	=6	=6	=6	=6	=6	=6	=6
!LO:TX:a:t=P:problem=mixed beam	!	!	!	!	!	!	!	!	!	!	!	!	!	!	!	!	!	!	!	!
8E-\L	.	.	.	.	.	.	.	.	.	8B-\	-ve	.	8g\	-ve	.	8ee-\	-ve	.	.	.
8BB-/J	.	.	.	.	.	.	.	.	.	8B-\	ma-	.	8f\	ma-	.	8dd\	ma-	.	.	.
8C/L	7	.	.	.	.	.	.	.	.	(8B-\L	-ri-	.	4e-\	-ri-	.	4cc\	-ri-	.	.	.
8FF/J	7 n	.	.	.	.	.	.	.	.	8An\J)	.	.	.	.	.	.	.	.	.	.
8BB-/L	.	.	.	.	.	.	.	.	.	4B-\	-a	.	4d\	-a	.	4b-\	-a	.	.	.
8D/J	.	.	.	.	.	.	.	.	.	.	.	.	.	.	.	.	.	.	.	.
8E-\L	.	.	.	.	.	.	.	.	.	4r	.	.	4r	.	.	4r	.	.	.	.
8F\J	.	.	.	.	.	.	.	.	.	.	.	.	.	.	.	.	.	.	.	.
!	!	!	!	!	!	!	!	!	!	!	!	!	!	!	!	!LO:LB:g=original	!	!	!	!
=7	=7	=7	=7	=7	=7	=7	=7	=7	=7	=7	=7	=7	=7	=7	=7	=7	=7	=7	=7	=7
!LO:TX:b:t=Tut(ti)ti	!	!	!	!	!	!	!	!	!	!	!	!	!LO:TX:a:t=Tut(ti)	!	!	!LO:TX:a:t=Tut(ti)	!	!	!	!
8BB-/L	.	.	4dd\	.	4ff\	.	8BB-/L	a-	.	4.d\	a-	.	4.f\	A-	.	4.b-\	a-	.	4.ff\	4.bb-\
8C/	.	.	.	.	.	.	8C/J	.	.	.	.	.	.	.	.	.	.	.	.	.
8D/	.	.	8dd\L	.	8ff\L	.	8D/L	-ve	.	.	.	.	.	.	.	.	.	.	.	.
8AAn/J	.	.	8ff\J	.	8aan\J	.	8AAn/J	.	.	8d\	-ve	.	8f\	-ve	.	8cc\	-ve	.	8ff\	8ccc\
8GG/L	-	.	4.dd\	.	4bb-\	.	8GG/L	a-	.	4B-\	a-	.	4g\	a-	.	4dd\	a-	.	4gg\	4bb-\
8AAn/	.	.	.	.	.	.	8AAn/J	.	.	.	.	.	.	.	.	.	.	.	.	.
8BB-/	.	.	.	.	8bb-\L	.	8BB-/	-ve	.	8B-\	-ve	.	8g\	-ve	.	8dd\	-ve	.	8gg\L	8bb-\L
!	!	!	!LO:SIC:s=:v:ogonek z l. str.	!	!	!	!	!	!	!	!	!	!	!	!	!	!	!	!	!
8D/J	6	.	8ff\	.	8bb-\J	.	8C/	a-	.	8B-\	a-	.	8f\	a-	.	8b-\	a-	.	8gg\J	8bb-\J
!	!	!	!	!	!	!	!	!	!	!LO:LB:g=original	!	!	!LO:LB:g=original	!	!	!	!	!	!	!
=8	=8	=8	=8	=8	=8	=8	=8	=8	=8	=8	=8	=8	=8	=8	=8	=8	=8	=8	=8	=8
!LO:TX:a:t=P:problem=mixed beam	!	!	!	!	!	!	!	!	!	!	!	!	!	!	!	!	!	!	!	!
8E-\L	.	.	8gg\L	.	8bb-\L	.	8E-\	-ve	.	8e-\	-ve	.	8g\	-ve	.	8b-\	-ve	.	8gg\L	8bb-\L
8C\	.	.	8gg\	.	8bb-\	.	8BB-/	ma-	.	8d\	ma-	.	8g\	ma-	.	8b-\	ma-	.	8gg\J	8bb-\
!	!	!	!	!	!	!	!LO:TX:a:t=P:problem=mixed beam	!	!	!	!	!	!	!	!	!	!	!	!	!
8F\	.	.	8ff\	.	8bb-\	.	(8F\L	-ri-	.	4c\	-ri-	.	4f\	-ri-	.	(8b-\L	-ri-	.	8ff\L	8bb-\
.	x 4	.	.	.	.	.	.	.	.	.	.	.	.	.	.	.	.	.	.	.
8FF/J	7 3	.	8ff\J	.	8aan\J	.	8FF/J)	.	.	.	.	.	.	.	.	8an\J)	.	.	16ff\L	8aaX\J
.	x n	.	.	.	.	.	.	.	.	.	.	.	.	.	.	.	.	.	16ff\JJ	.
!LO:TX:a:t=P:problem=mixed beam	!	!	!	!	!	!	!	!	!	!	!	!	!	!	!	!	!	!	!	!
8BB-/L	.	.	8ff\L	.	8bb-\L	.	8BB-/	-a	.	4d,<\	-a	.	4f\	-a	.	8b-\	-a	.	4ff\	4bb-\
8B-\	.	.	8dd\	.	8ff\J	.	8B-\L	a-	.	.	.	.	.	.	.	4b-\	a-	.	.	.
8G\	6	.	8b-\	.	8gg\L	.	8G\J	.	.	8e-\	a-	.	8g\	a-	.	.	.	.	8g/L	8ee-\L
8E-\J	.	.	8gg\J	.	8bb-\J	.	8E-\	-ve	.	8e-\	-ve	.	8g\	-ve	.	8b-\	-ve	.	8g/J	8ee-\J
!	!	!	!	!	!	!	!LO:LB:g=original	!	!	!	!	!	!	!	!	!	!	!	!	!
=9	=9	=9	=9	=9	=9	=9	=9	=9	=9	=9	=9	=9	=9	=9	=9	=9	=9	=9	=9	=9
*	*	*	*	*	*	*	*	*	*	*	*ij	*	*	*	*	*	*	*	*	*
8A-\L	.	.	8ee-\L	.	4.ccc\	.	4.A-\	a-	.	4.e-\	a-	.	(8e-\L	a-	.	(8cc\L	a-	.	8e-/L	8ee-\L
8B-\	.	.	8dd\J	.	.	.	.	.	.	.	.	.	8d\J)	.	.	8b-\J)	.	.	16e-/L	16ee-\L
.	.	.	.	.	.	.	.	.	.	.	.	.	.	.	.	.	.	.	16e-/JJ	16ee-\JJ
8c\	.	.	8cc\L	.	.	.	.	.	.	.	.	.	(8c\L	-ve	.	(8a-X\L	-ve	.	8e-/L	8ee-\L
8A-\J	.	.	8ee-\J	.	8ccc\	.	8A-\	-ve	.	8c\	-ve	.	8e-\J)	.	.	8cc\J)	.	.	8e-/J	8ee-\J
*	*	*	*	*	*	*	*	*	*	*	*Xij	*	*	*	*	*	*	*	*	*
8F\L	-	.	8ff\L	.	8aa-\L	.	(8F\L	a-	.	(8c\L	a-	.	4.f\	a-	.	4.cc\	a-	.	2r	8ff\L
8G\	.	.	8ee-\J	.	8gg\J	.	8G\J)	.	.	8B-\J)	.	.	.	.	.	.	.	.	.	16ff\L
.	.	.	.	.	.	.	.	.	.	.	.	.	.	.	.	.	.	.	.	16ff\JJ
8A-\	.	.	8ff\L	.	8ff\L	.	(8A-\L	-ve	.	(8A-\L	-ve	.	.	.	.	.	.	.	.	16ff\LL
.	.	.	.	.	.	.	.	.	.	.	.	.	.	.	.	.	.	.	.	16ff\
8F\J	.	.	8ff\J	.	8aa-\J	.	8F\J)	.	.	8c\J)	.	.	8f\	-ve	.	8cc\	-ve	.	.	16ff\
.	.	.	.	.	.	.	.	.	.	.	.	.	.	.	.	.	.	.	.	16ff\JJ
=10	=10	=10	=10	=10	=10	=10	=10	=10	=10	=10	=10	=10	=10	=10	=10	=10	=10	=10	=10	=10
*	*	*	*	*	*	*	*	*	*	*	*ij	*	*	*	*	*	*	*	*	*
8B-\L	.	.	8dd\L	.	8ff\L	.	8B-\L	a-	.	4B-\	a-	.	(8f\L	a-	.	(8dd\L	a-	.	8b-/L	8ff\L
8c\	.	.	8cc\J	.	8ee-\	.	8c\J	.	.	.	.	.	8e-\J)	.	.	8cc\J)	.	.	16b-/L	16ff\L
.	.	.	.	.	.	.	.	.	.	.	.	.	.	.	.	.	.	.	16b-/JJ	16ff\JJ
!	!	!	!	!	!	!	!	!	!	!	!	!	!	!	!	!	!	!	!LO:TX:a:t=P:problem=mixed beam	!
8d\	.	.	8b-\L	.	8dd\	.	8d\	-ve	.	8B-\	-ve	.	8d\	-ve	.	8b-\	-ve	.	8b-/L	8ff\L
*	*	*	*	*	*	*	*	*	*	*	*Xij	*	*	*	*	*	*	*	*	*
8B-\J	.	.	8dd\J	.	8ff\J	.	8B-\	a-	.	8B-\	a-	.	8f\	a	.	8dd\	a-	.	8ff\J	8bb-\J
!	!	!	!	!	!	!	!	!	!	!	!	!	!	!	!	!	!	!	!LO:LB:g=original	!LO:LB:g=original
8G\L	6	.	8ee-\L	.	8gg\L	.	8G\	-ve	.	8B-\	-ve	.	8g\	ve	.	8ee-\	-ve	.	8gg\L	8bb-\L
8B-\	.	.	8ee-\	.	8gg\	.	8c\	Ma-	.	8c\	ma-	.	8g\	ma-	.	8ee-\	ma-	.	16ff\L	16aa-\L
.	.	.	.	.	.	.	.	.	.	.	.	.	.	.	.	.	.	.	16ee-\JJ	16gg\JJ
8F\	7	.	8ee-\	.	8ff\	.	8F\	-ri-	.	(8c\L	-ri-	.	4f\	-ri-	.	8ee-\L	-ri-	.	16b-/LL	16ff\LL
.	.	.	.	.	.	.	.	.	.	.	.	.	.	.	.	.	.	.	16g/	16aa-\
8B-\J	7	.	8dd\J	.	8ff\J	.	8B-\	-a	.	8B-\J)	.	.	.	.	.	8dd\J	.	.	16e-/	16gg\
.	.	.	.	.	.	.	.	.	.	.	.	.	.	.	.	.	.	.	16b-/JJ	16ff\JJ
!	!	!	!LO:LB:g=original	!	!LO:LB:g=original	!	!	!	!	!	!	!	!	!	!	!	!	!	!	!
=11	=11	=11	=11	=11	=11	=11	=11	=11	=11	=11	=11	=11	=11	=11	=11	=11	=11	=11	=11	=11
!	!	!	!LO:SIC:s=:v:ogonek z l. str.	!	!	!	!	!	!	!	!	!	!	!	!	!	!	!	!	!
!	!	!	!LO:SIC:s=:v:	!	!LO:SIC:s=:v:ogonek z lewej	!	!	!	!	!	!	!	!	!	!	!	!	!	!	!
!	!	!	!	!	!	!	!	!	!LO:DY:a	!	!	!	!	!	!	!	!	!LO:DY:b	!	!
4E-\	.	p	8ee-\	p	8gg\	p	8E-\L	a-	p	4B-\	-a	.	8g\	-a	.	8ee-\	-a	p	8g/L	8ee-\L
.	.	.	4g/	.	4ee-\	.	8F\J	.	.	.	.	.	4g\	a-	p	4ee-\	a-	.	16g/L	16ee-\L
.	.	.	.	.	.	.	.	.	.	.	.	.	.	.	.	.	.	.	16g/JJ	16ee-\JJ
!	!	!	!	!	!	!	!	!	!	!	!	!LO:DY:b	!	!	!	!	!	!	!	!
8r	.	.	.	.	.	.	8G\L	-ve	.	8e-\	a-	p	.	.	.	.	.	.	16g/LL	8ee-\L
.	.	.	.	.	.	.	.	.	.	.	.	.	.	.	.	.	.	.	16g/	.
!	!	!	!	!	!LO:SIC:s=:v:ogonek z lewej	!	!	!	!	!	!	!	!	!	!	!	!	!	!	!
8E-\	.	.	8g/	.	8ee-\	.	8E-\J	.	.	8e-\	-ve	.	8g\	-ve	.	8ee-\	-ve	.	16g/	8ee-\J
.	.	.	.	.	.	.	.	.	.	.	.	.	.	.	.	.	.	.	16g/JJ	.
*	*	*	*	*	*	*	*	*	*	*	*ij	*	*	*	*	*	*	*	*	*
4A-\	.	.	8e-/L	.	8cc\L	.	4.A-\	a-	.	4.e-\	a-	.	(8e-\L	a-	.	(8cc\L	a-	.	8e-/L	8ee-\L
.	.	.	8d/J	.	8b-\J	.	.	.	.	.	.	.	8d\J)	.	.	8b-\J)	.	.	16e-/L	16ee-\L
.	.	.	.	.	.	.	.	.	.	.	.	.	.	.	.	.	.	.	16e-/JJ	16ee-\JJ
4r	.	.	8c/L	.	8a-\L	.	.	.	.	.	.	.	(8c\L	-ve	.	(8a-\L	-ve	.	8e-/L	16ee-\LL
.	.	.	.	.	.	.	.	.	.	.	.	.	.	.	.	.	.	.	.	16ee-\
.	.	.	8e-/J	.	8cc\J	.	8A-\	-ve	.	8c\	-ve	.	8e-\J)	.	.	8cc\J)	.	.	8e-/J	16ee-\
.	.	.	.	.	.	.	.	.	.	.	.	.	.	.	.	.	.	.	.	16ee-\JJ
*	*	*	*	*	*	*	*	*	*	*	*Xij	*	*	*	*	*	*	*	*	*
!	!	!	!	!	!	!	!	!	!	!	!	!	!	!	!	!LO:LB:g=original	!	!	!	!
=12	=12	=12	=12	=12	=12	=12	=12	=12	=12	=12	=12	=12	=12	=12	=12	=12	=12	=12	=12	=12
4F\	n	.	4.a-/	.	4.cc\	.	(8F\L	a-	.	8c\L	a-	.	4.f\	a-	.	4.cc\	a-	.	2r	8ff\L
.	.	.	.	.	.	.	8G\J)	.	.	8B-\J	.	.	.	.	.	.	.	.	.	16ff\L
.	.	.	.	.	.	.	.	.	.	.	.	.	.	.	.	.	.	.	.	16ff\JJ
8r	.	.	.	.	.	.	8A-\L	-ve	.	8A-\L	-ve	.	.	.	.	.	.	.	.	16ff\LL
.	.	.	.	.	.	.	.	.	.	.	.	.	.	.	.	.	.	.	.	16ff\
8F\	.	.	8a-/	.	8cc\	.	8F\J	.	.	8c\J	.	.	8f\	-ve	.	8cc\	-ve	.	.	16ff\
.	.	.	.	.	.	.	.	.	.	.	.	.	.	.	.	.	.	.	.	16ff\JJ
!LO:LB:g=original	!	!	!	!	!	!	!	!	!	!	!	!	!	!	!	!	!	!	!	!
4BB-/	.	.	8f/L	.	8dd\L	.	8B-\L	a-	.	4B-\	a-	.	(8f\L	a-	.	(8dd\L	a-	.	8b-/L	8ff\L
.	.	.	8e-/J	.	8cc\J	.	8c\J	.	.	.	.	.	8e-\J)	.	.	8cc\J)	.	.	16b-/L	16ff\L
.	.	.	.	.	.	.	.	.	.	.	.	.	.	.	.	.	.	.	16b-/JJ	16ff\JJ
!	!	!	!	!	!	!	!	!	!	!	!	!	!LO:LB:g=original	!	!	!	!	!	!	!
!	!	!	!	!	!	!	!	!	!	!	!	!	!	!	!	!	!	!	!LO:TX:a:t=P:problem=mixed beam	!
8r	.	.	8d/L	.	8b-\L	.	8d\	-ve	.	8B-\	-ve	.	8d\	-ve	.	8b-\	-ve	.	8b-/L	8ff\L
8B-\	.	.	8f/J	.	8dd\J	.	8B-\	a-	.	8B-\	a-	.	8f\	a-	.	8dd\	a-	.	8ff\J	8bb-\J
!	!	!	!	!	!	!	!	!	!	!LO:LB:g=original	!	!	!	!	!	!	!	!	!	!
=13	=13	=13	=13	=13	=13	=13	=13	=13	=13	=13	=13	=13	=13	=13	=13	=13	=13	=13	=13-	=13
!	!	!	!LO:TX:a:t=P:problem=mixed beam	!	!	!	!	!	!	!	!	!	!	!	!	!	!	!	!LO:SIC:s=:v:brak kreski takt.	!
8G\L	6	.	8g/L	.	8ee-\L	.	8G\	-ve	.	8B-\	-ve	.	8g\	-ve	.	8ee-\	-ve	.	8gg\L	8bb-\L
8c\J	-	.	8ee-\J	.	8gg\	.	8c\	ma-	.	8c\	ma-	.	8g\	ma-	.	8ee-\	ma-	.	16ff\L	16aa-\L
.	.	.	.	.	.	.	.	.	.	.	.	.	.	.	.	.	.	.	16ee-\JJ	16gg\JJ
8F\L	2	.	8ee-\L	.	8aa-\	.	(8F\L	-ri-	.	8c\L	-ri-	.	8f\	-ri-	.	8ee-\	-ri-	.	16b-/LL	16ff\LL
.	.	.	.	.	.	.	.	.	.	.	.	.	.	.	.	.	.	.	16g/	16aa-\
8B-\J	3	.	8ff\J	.	8bb-\J	.	8B-\J)	.	.	8B-\J	.	.	8f\	-a	.	8dd\	-a	.	16e-/	16gg\
.	.	.	.	.	.	.	.	.	.	.	.	.	.	.	.	.	.	.	16b-/JJ	16ff\JJ
!	!	!	!	!	!	!	!LO:LB:g=original	!	!	!	!	!	!	!	!	!	!	!	!	!
!	!	!	!	!	!LO:SIC:s=:v:ogonek z lewej	!	!	!	!	!	!	!	!	!	!	!	!	!	!	!
!	!	!	!	!	!	!	!	!	!	!	!	!	!	!	!LO:DY:b	!	!	!LO:DY:b	!	!
8E-\	.	.	8gg\	.	8bb-\	.	8E-\	-a	.	8B-\	-a	.	(8g\L	a-	f	(8ee-\L	a-	f	8g/	8ee-\
8r	.	.	8r	.	8r	.	8r	.	.	8r	.	.	8b-\J)	.	.	8dd\J)	.	.	8r	8r
4r	.	.	4r	.	4r	.	4r	.	.	4r	.	.	(8a-\L	-ve	.	(8cc\L	-ve	.	4r	4r
.	.	.	.	.	.	.	.	.	.	.	.	.	8g\J)	.	.	8b-\J)	.	.	.	.
=14	=14	=14	=14	=14	=14	=14	=14	=14	=14	=14	=14	=14	=14	=14	=14	=14	=14	=14	=14	=14
!	!	!	!	!	!	!	!	!	!LO:DY:b	!	!	!LO:DY:b	!	!	!	!	!	!	!	!
8c\L	-	f	8cc\L	f	8ee-\L	f	8c\L	a-	f	8e-\L	a-	f	4g\	a-	.	4.cc\	a-	.	8e-/L	8e-/L
8B-\	.	.	8dd\J	.	8gg\J	.	8B-\J	.	.	8d\J	.	.	.	.	.	.	.	.	16e-/L	16e-/L
.	.	.	.	.	.	.	.	.	.	.	.	.	.	.	.	.	.	.	16e-/JJ	16e-/JJ
8A-\	.	.	8ee-\L	.	8aa-\L	.	8A-\L	-ve	.	8c\L	-ve	.	(8a-\L	-ve	.	.	.	.	16e-/LL	16e-/LL
.	.	.	.	.	.	.	.	.	.	.	.	.	.	.	.	.	.	.	16e-/	16e-/
8G\J	6	.	8gg\J	.	8bb-\J	.	8G\J	.	.	8B-\J	.	.	8b-\J)	.	.	8ee-\	-ve	.	16e-/	16e-/
.	.	.	.	.	.	.	.	.	.	.	.	.	.	.	.	.	.	.	16e-/JJ	16e-/JJ
8A-\L	6	.	8.cc\L	.	8.ee-\L	.	8A-\L	a-	.	(8c\L	a-	.	4e-\	a-	.	(8cc\L	a-	.	8e-/L	8e-/L
8G\	6	.	.	.	.	.	8G\J	.	.	8e-\J)	.	.	.	.	.	8b-\J)	.	.	16e-/L	16e-/L
.	.	.	16cc\Jk	.	16ee-\Jk	.	.	.	.	.	.	.	.	.	.	.	.	.	16e-/JJ	16e-/JJ
!	!	!	!	!	!	!	!	!	!	!	!	!	!	!	!	!	!	!	!LO:TX:a:t=P:problem=mixed beam	!LO:TX:a:t=P:problem=mixed beam
8F\	.	.	8dd\L	.	8ff\L	.	8F\	-ve	.	8d\	-ve	.	8f\	-ve	.	8a-\	-ve	.	8f/L	8e-/L
8E-\J	.	.	8b-\J	.	8gg\J	.	8E-\	a-	.	8e-\	a-	.	8g\	a-	.	8b-\	a-	.	8ee-\J	8ee-\J
=15	=15	=15	=15	=15	=15	=15	=15	=15	=15	=15	=15	=15	=15	=15	=15	=15	=15	=15	=15	=15
8A-\L	6_ 5_	.	8cc\L	.	8ff\L	.	8A-\	-ve	.	8e-\	-ve	.	8f\	-ve	.	8cc\	-ve	.	8ff\L	8ff\L
8F\	.	.	8cc\J	.	8ff\J	.	8F\	Ma-	.	8e-\	Ma-	.	8f\	Ma-	.	8cc\	Ma-	.	8aa-\J	8ccc\J
!	!	!	!	!	!	!	!LO:TX:a:t=P:problem=mixed beam	!	!	!	!	!	!	!	!	!	!	!	!	!
8B-\	.	.	8b-\L	.	4ff\	.	(8B-\L	-ri-	.	8e-\L	-ri-	.	4f\	-ri-	.	4b-\	-ri-	.	8gg\L	8bb-\L
.	x 4	.	.	.	.	.	.	.	.	.	.	.	.	.	.	.	.	.	.	.
8BB-/J	x 3	.	8b-\J	.	.	.	8BB-/J)	.	.	8d\J	.	.	.	.	.	.	.	.	8ff\J	8bb-\J
!	!	!	!	!	!	!	!	!	!	!	!	!	!	!	!	!	!	!	!	!LO:LB:g=original
!LO:TX:a:t=P:problem=mixed beam	!	!	!	!	!	!	!	!	!	!	!	!	!	!	!	!	!	!	!	!
8E-\L	.	.	8b-\L	.	8gg\L	.	8E-\	-a	.	8e-\	-a	.	8g\	-a	.	8b-\	-a	.	8gg\L	8bb-\L
8AAn/J	6 5	.	16ff\L	.	8ff\J	.	8AAn/	Ma-	.	8c\	Ma-	.	8f\	Ma-	.	16ff\LL	Ma-	.	16ff\L	16ccc\L
.	.	.	16ee-\JJ	.	.	.	.	.	.	.	.	.	.	.	.	16ee-\JJ	.	.	16ee-\JJ	16ff\JJ
4BB-/	4	.	8ee-\L	.	8ff\L	.	4BB-/	-ri-	.	4B-\	-ri-	.	4f\	-ri-	.	8ee-\L	-ri-	.	8ee-/L	8gg\L
.	3	.	8dd\J	.	8bb-\J	.	.	.	.	.	.	.	.	.	.	8dd\J	.	.	8b-/J	16ff\L
.	.	.	.	.	.	.	.	.	.	.	.	.	.	.	.	.	.	.	.	16ee-\JJ
=16	=16	=16	=16	=16	=16	=16	=16	=16	=16	=16	=16	=16	=16	=16	=16	=16	=16	=16	=16	=16
1E-\	.	.	2ee-\	.	2bb-\	.	2E-\	-a	.	2B-\	-a	.	2e-\	-a	.	2ee-\	-a	.	2g/	2ee-\
.	.	.	2r	.	2r	.	2r	.	.	2r	.	.	2r	.	.	2r	.	.	2r	2r
!	!	!	!	!	!	!	!	!	!	!	!	!	!	!	!	!	!	!	!LO:LB:g=original	!
=17||	=17||	=17||	=17||	=17||	=17||	=17||	=17||	=17||	=17||	=17||	=17||	=17||	=17||	=17||	=17||	=17||	=17||	=17||	=17||	=17||
*M3/4	*	*	*M3/4	*	*M3/4	*	*M3/4	*	*	*M3/4	*	*	*M3/4	*	*	*M3/4	*	*	*M3/4	*M3/4
!	!	!	!LO:LB:g=original	!	!	!	!	!	!	!	!	!	!	!	!	!	!	!	!	!
!LO:TX:a:t=Solo	!	!	!LO:TX:b:i:t=Gratia plena	!	!LO:TX:b:i:t=Gratia plena	!	!	!	!	!	!	!	!	!	!	!	!	!	!	!
!LO:TX:b:i:t=Gratia plena	!	!	!LO:TX:a:t=Solo	!	!LO:TX:a:t=Solo	!	!LO:TX:a:t=Gratia plena\nTacet	!	!	!LO:TX:a:t=Gratia plena\nTacet	!	!	!	!	!	!LO:TX:a:t=Solo	!	!	!LO:TX:b:i:t=Gratia plena	!LO:TX:b:i:t=Gratia plena
!	!	!	!	!	!	!	!	!	!	!	!	!	!LO:N:vis=00	!	!	!	!	!	!LO:N:vis=0	!LO:N:vis=0
4E-\	.	.	8e-/L	.	8e-/L	.	2.ryy	.	.	2.ryy	.	.	0.r	.	.	0.r	.	.	1.r	1.r
.	.	.	16e-/L	.	16e-/L	.	.	.	.	.	.	.	.	.	.	.	.	.	.	.
.	.	.	16f/JJ	.	16f/JJ	.	.	.	.	.	.	.	.	.	.	.	.	.	.	.
!	!	!	!	!	!LO:LB:g=original	!	!	!	!	!	!	!	!	!	!	!	!	!	!	!
8E-\L	.	.	8e-/L	.	8e-/L	.	.	.	.	.	.	.	.	.	.	.	.	.	.	.
8F\	.	.	8e-/J	.	8e-/J	.	.	.	.	.	.	.	.	.	.	.	.	.	.	.
8G\	.	.	8e-/L	.	8e-/L	.	.	.	.	.	.	.	.	.	.	.	.	.	.	.
8E-\J	.	.	16d/L	.	16d/L	.	.	.	.	.	.	.	.	.	.	.	.	.	.	.
.	.	.	16e-/JJ	.	16e-/JJ	.	.	.	.	.	.	.	.	.	.	.	.	.	.	.
=18	=18	=18	=18	=18	=18	=18	=18	=18	=18	=18	=18	=18	=18	=18	=18	=18	=18	=18	=18	=18
4A-\	6\	.	8f/L	.	8f/L	.	2.ryy	.	.	2.ryy	.	.	.	.	.	.	.	.	.	.
!	!	!	!	!	!LO:N:vis=8	!	!	!	!	!	!	!	!	!	!	!	!	!	!	!
.	.	.	16f/L	.	16f/L	.	.	.	.	.	.	.	.	.	.	.	.	.	.	.
!	!	!	!	!	!LO:N:vis=8	!	!	!	!	!	!	!	!	!	!	!	!	!	!	!
.	.	.	16g/JJ	.	16g/JJ	.	.	.	.	.	.	.	.	.	.	.	.	.	.	.
8A-\L	.	.	8f/L	.	8f/L	.	.	.	.	.	.	.	.	.	.	.	.	.	.	.
8F\J	.	.	8f/J	.	8f/J	.	.	.	.	.	.	.	.	.	.	.	.	.	.	.
8D/L	6	.	8f/L	.	8f/L	.	.	.	.	.	.	.	.	.	.	.	.	.	.	.
8BB-/J	.	.	16e-/L	.	16e-/L	.	.	.	.	.	.	.	.	.	.	.	.	.	.	.
.	.	.	16f/JJ	.	16f/JJ	.	.	.	.	.	.	.	.	.	.	.	.	.	.	.
=19	=19	=19	=19	=19	=19	=19	=19	=19	=19	=19	=19	=19	=19	=19	=19	=19	=19	=19	=19	=19
*2\right	*	*	*	*	*	*	*	*	*	*	*	*	*	*	*	*	*	*	*	*
2E-\	.	.	8g/L	.	8g/L	.	2.ryy	.	.	2.ryy	.	.	.	.	.	.	.	.	8g/L	8ee-\L
.	.	.	8b-/J	.	8b-/J	.	.	.	.	.	.	.	.	.	.	.	.	.	16g/L	16ee-\L
.	.	.	.	.	.	.	.	.	.	.	.	.	.	.	.	.	.	.	16b-/JJ	16ff\JJ
.	.	.	8ee-\L	.	8ee-\L	.	.	.	.	.	.	.	.	.	.	.	.	.	8g/L	8ee-\L
.	.	.	8b-\J	.	8b-\J	.	.	.	.	.	.	.	.	.	.	.	.	.	8g/J	8ee-\J
4E-\	7	.	8gg\L	.	8gg\L	.	.	.	.	.	.	.	.	.	.	.	.	.	8g/L	8ee-\L
.	.	.	16ff\L	.	16ff\L	.	.	.	.	.	.	.	.	.	.	.	.	.	16b-/L	16ee-\L
.	.	.	16ee-\JJ	.	16ee-\JJ	.	.	.	.	.	.	.	.	.	.	.	.	.	16g/JJ	16ff\JJ
!LO:LB:g=original	!	!	!	!	!	!	!	!	!	!	!	!	!	!	!	!	!	!	!	!
=20	=20	=20	=20	=20	=20	=20	=20	=20	=20	=20	=20	=20	=20	=20	=20	=20	=20	=20	=20	=20
2B-\	.	.	8ff\L	.	8ff\L	.	2.ryy	.	.	2.ryy	.	.	.	.	.	.	.	.	8b-/L	8ff\L
.	.	.	8b-\	.	8b-\	.	.	.	.	.	.	.	.	.	.	.	.	.	16b-/L	16ff\L
.	.	.	.	.	.	.	.	.	.	.	.	.	.	.	.	.	.	.	16ee-/JJ	16gg\JJ
.	.	.	8dd\	.	8dd\	.	.	.	.	.	.	.	.	.	.	.	.	.	8b-/L	8ff\L
.	.	.	8ff\J	.	8ff\J	.	.	.	.	.	.	.	.	.	.	.	.	.	8b-/J	8ff\J
4BB-/	.	.	16aa-\LL	.	16aa-\LL	.	.	.	.	.	.	.	.	.	.	.	.	.	8b-/L	8ff\L
.	.	.	16gg\	.	16gg\	.	.	.	.	.	.	.	.	.	.	.	.	.	.	.
.	.	.	16aa-\	.	16aa-\	.	.	.	.	.	.	.	.	.	.	.	.	.	16g/L	16ee-\L
.	.	.	16ff\JJ	.	16ff\JJ	.	.	.	.	.	.	.	.	.	.	.	.	.	16b-/JJ	16ff\JJ
=21	=21	=21	=21	=21	=21	=21	=21	=21	=21	=21	=21	=21	=21	=21	=21	=21	=21	=21	=21	=21
!	!	!	!	!	!	!	!	!	!	!	!	!	!LO:N:vis=00	!	!	!	!	!	!	!
2E-\	.	.	8gg\L	.	8gg\L	.	2.ryy	.	.	2.ryy	.	.	0.r	.	.	0.r	.	.	8ee-\L	8gg\L
.	.	.	8bb-\	.	8bb-\	.	.	.	.	.	.	.	.	.	.	.	.	.	8gg\J	8bb-\
!	!	!	!	!	!	!	!	!	!	!	!	!	!	!	!	!	!	!	!LO:TX:a:t=P:problem=mixed beam	!
.	.	.	8ee-\	.	8ee-\	.	.	.	.	.	.	.	.	.	.	.	.	.	8g/L	8ee-\
.	.	.	8gg\	.	8gg\	.	.	.	.	.	.	.	.	.	.	.	.	.	8ee-\J	8gg\J
4A-\	6	.	8cc\	.	8cc\	.	.	.	.	.	.	.	.	.	.	.	.	.	8ff\L	8aa-\L
.	5	.	8ee-\J	.	8ee-\J	.	.	.	.	.	.	.	.	.	.	.	.	.	8ee-\J	8gg\J
=22	=22	=22	=22	=22	=22	=22	=22	=22	=22	=22	=22	=22	=22	=22	=22	=22	=22	=22	=22	=22
4B-\	.	.	8dd\L	.	8dd\L	.	2.ryy	.	.	2.ryy	.	.	.	.	.	.	.	.	8b-/L	8ff\L
.	.	.	8b-\J	.	8b-\J	.	.	.	.	.	.	.	.	.	.	.	.	.	16b-/L	16ff\L
.	.	.	.	.	.	.	.	.	.	.	.	.	.	.	.	.	.	.	16b-/JJ	16ff\JJ
!LO:TX:a:t=P:problem=mixed beam	!	!	!	!	!	!	!	!	!	!	!	!	!	!	!	!	!	!	!	!
8BB-/L	7_ 5_	.	16ff\LL	.	16aa-\LL	.	.	.	.	.	.	.	.	.	.	.	.	.	8b-/L	8ff\L
.	.	.	16ee-\	.	16gg\	.	.	.	.	.	.	.	.	.	.	.	.	.	.	.
8B-\	.	.	16dd\	.	16ff\	.	.	.	.	.	.	.	.	.	.	.	.	.	8b-/J	8ff\
.	.	.	16ee-\JJ	.	16gg\JJ	.	.	.	.	.	.	.	.	.	.	.	.	.	.	.
!	!	!	!	!	!	!	!	!	!	!	!	!	!	!	!	!	!	!	!LO:TX:a:t=P:problem=mixed beam	!
8B-\	.	.	16ff\LL	.	16aa-\LL	.	.	.	.	.	.	.	.	.	.	.	.	.	8b-/L	8ff\
.	.	.	16ee-\	.	16gg\	.	.	.	.	.	.	.	.	.	.	.	.	.	.	.
8BB-/J	.	.	16ff\	.	16aa-\	.	.	.	.	.	.	.	.	.	.	.	.	.	8ff\J	8bb-\J
.	x	.	16dd\JJ	.	16ff\JJ	.	.	.	.	.	.	.	.	.	.	.	.	.	.	.
=23	=23	=23	=23	=23	=23	=23	=23	=23	=23	=23	=23	=23	=23	=23	=23	=23	=23	=23	=23	=23
4E-\	.	.	16b-/LL	.	16gg\LL	.	2.ryy	.	.	2.ryy	.	.	.	.	.	.	.	.	16gg\LL	16bb-\LL
.	.	.	16a-/	.	16ff\	.	.	.	.	.	.	.	.	.	.	.	.	.	16ff\	16aa-\
.	.	.	16g/	.	16ee-\	.	.	.	.	.	.	.	.	.	.	.	.	.	16ee-\	16gg\
.	.	.	16a-/JJ	.	16ff\JJ	.	.	.	.	.	.	.	.	.	.	.	.	.	16ff\JJ	16aa-\JJ
!LO:TX:a:t=P:problem=mixed beam	!	!	!	!	!	!	!	!	!	!	!	!	!	!	!	!	!	!	!	!
8G\L	.	.	16b-/LL	.	16gg\LL	.	.	.	.	.	.	.	.	.	.	.	.	.	16gg\LL	16bb-\LL
.	.	.	16a-/	.	16ff\	.	.	.	.	.	.	.	.	.	.	.	.	.	16ff\	16aa-\
8A-\	.	.	16b-/	.	16gg\	.	.	.	.	.	.	.	.	.	.	.	.	.	16gg\	16bb-\
.	.	.	16g/JJ	.	16ee-\JJ	.	.	.	.	.	.	.	.	.	.	.	.	.	16ee-\JJ	16gg\JJ
8B-\	.	.	4f/	.	8.ddt\L	.	.	.	.	.	.	.	.	.	.	.	.	.	16b-/LL	8.ff\L
.	.	.	.	.	.	.	.	.	.	.	.	.	.	.	.	.	.	.	16g/	.
8BB-/J	4	.	.	.	.	.	.	.	.	.	.	.	.	.	.	.	.	.	16e-/	.
.	3	.	.	.	16dd\Jk	.	.	.	.	.	.	.	.	.	.	.	.	.	16b-/JJ	16ff\Jk
!	!	!	!LO:LB:g=original	!	!LO:LB:g=original	!	!	!	!	!	!	!	!	!	!	!	!	!	!	!
=24	=24	=24	=24	=24	=24	=24	=24	=24	=24	=24	=24	=24	=24	=24	=24	=24	=24	=24	=24	=24
!	!	!	!	!	!LO:TX:a:t=P:problem=mixed beam	!	!	!	!	!	!	!	!	!	!	!	!	!	!	!LO:TX:a:t=P:problem=mixed beam
4E-\	.	.	8e-/L	.	8ee-\L	.	2.ryy	.	.	2.ryy	.	.	.	.	.	.	.	.	8g/L	8ee-\L
.	.	.	16e-/L	.	16e-/L	.	.	.	.	.	.	.	.	.	.	.	.	.	16g/L	16e-/L
.	.	.	16e-/JJ	.	16f/JJ	.	.	.	.	.	.	.	.	.	.	.	.	.	16g/JJ	16e-/JJ
8E-\L	.	.	8e-/L	.	8e-/L	.	.	.	.	.	.	.	.	.	.	.	.	.	8g/L	8e-/L
8F\	.	.	8e-/J	.	8e-/J	.	.	.	.	.	.	.	.	.	.	.	.	.	8g/J	8e-/J
8G\	.	.	4e-/	.	4e-/	.	.	.	.	.	.	.	.	.	.	.	.	.	4g/	4e-/
8F\J	.	.	.	.	.	.	.	.	.	.	.	.	.	.	.	.	.	.	.	.
!	!	!	!	!	!	!	!	!	!	!	!	!	!	!	!	!LO:LB:g=original	!	!	!	!
=25	=25	=25	=25	=25	=25	=25	=25	=25	=25	=25	=25	=25	=25	=25	=25	=25	=25	=25	=25	=25
!	!	!	!	!	!	!	!	!	!	!	!	!	!LO:TX:a:t=Solo	!	!	!	!	!	!LO:N:vis=0	!LO:N:vis=0
2.E-\	.	.	2.r	.	2.r	.	2.ryy	.	.	2.ryy	.	.	4.e-\	Gra-	.	4.g\	Gra-	.	1.r	1.r
.	.	.	.	.	.	.	.	.	.	.	.	.	8f\	-ti-	.	8a-\	-ti-	.	.	.
.	.	.	.	.	.	.	.	.	.	.	.	.	4g\	-a	.	4b-\	-a	.	.	.
!	!	!	!	!	!	!	!	!	!	!	!	!	!LO:LB:g=original	!	!	!	!	!	!	!
=26	=26	=26	=26	=26	=26	=26	=26	=26	=26	=26	=26	=26	=26	=26	=26	=26	=26	=26	=26	=26
4A-\	.	.	8r	.	8r	.	2.ryy	.	.	2.ryy	.	.	2a-\	ple-	.	2cc\	ple-	.	.	.
.	.	.	16e-/LL	.	16e-/LL	.	.	.	.	.	.	.	.	.	.	.	.	.	.	.
.	.	.	16f/JJ	.	16f/JJ	.	.	.	.	.	.	.	.	.	.	.	.	.	.	.
8c\L	6	.	8e-/L	.	8e-/L	.	.	.	.	.	.	.	.	.	.	.	.	.	.	.
8A-\J	.	.	8e-/J	.	8e-/J	.	.	.	.	.	.	.	.	.	.	.	.	.	.	.
8E-\L	.	.	8e-/L	.	8e-/L	.	.	.	.	.	.	.	4g\	-na	.	4b-\	-na	.	.	.
8G\J	6	.	16d/L	.	16d/L	.	.	.	.	.	.	.	.	.	.	.	.	.	.	.
.	.	.	16e-/JJ	.	16e-/JJ	.	.	.	.	.	.	.	.	.	.	.	.	.	.	.
=27	=27	=27	=27	=27	=27	=27	=27	=27	=27	=27	=27	=27	=27	=27	=27	=27	=27	=27	=27	=27
!	!	!	!	!	!	!	!	!	!	!	!	!	!LO:N:vis=00	!	!	!	!	!	!	!
4A-\	6	.	8f/L	.	8f/L	.	2.ryy	.	.	2.ryy	.	.	0.r	.	.	0.r	.	.	2.r	2.r
.	.	.	16f/L	.	16f/L	.	.	.	.	.	.	.	.	.	.	.	.	.	.	.
.	.	.	16g/JJ	.	16g/JJ	.	.	.	.	.	.	.	.	.	.	.	.	.	.	.
8A-\L	.	.	8f/L	.	8f/L	.	.	.	.	.	.	.	.	.	.	.	.	.	.	.
8F\J	.	.	8f/J	.	8f/J	.	.	.	.	.	.	.	.	.	.	.	.	.	.	.
8D/L	.	.	8f/L	.	8f/L	.	.	.	.	.	.	.	.	.	.	.	.	.	.	.
8BB-/J	.	.	16e-/L	.	16e-/L	.	.	.	.	.	.	.	.	.	.	.	.	.	.	.
.	.	.	16f/JJ	.	16f/JJ	.	.	.	.	.	.	.	.	.	.	.	.	.	.	.
!	!	!	!	!	!	!	!	!	!	!	!	!	!	!	!	!	!	!	!LO:LB:g=original	!LO:LB:g=original
=28	=28	=28	=28	=28	=28	=28	=28	=28	=28	=28	=28	=28	=28	=28	=28	=28	=28	=28	=28	=28
2.E-\	.	.	8g/L	.	8g/L	.	2.ryy	.	.	2.ryy	.	.	.	.	.	.	.	.	8g/L	8ee-\L
.	.	.	8b-/J	.	8b-/J	.	.	.	.	.	.	.	.	.	.	.	.	.	16g/L	16ee-\L
.	.	.	.	.	.	.	.	.	.	.	.	.	.	.	.	.	.	.	16b-/JJ	16ff\JJ
.	.	.	8ee-\L	.	8ee-\L	.	.	.	.	.	.	.	.	.	.	.	.	.	8g/L	8ee-\L
.	.	.	8b-\J	.	8b-\J	.	.	.	.	.	.	.	.	.	.	.	.	.	8g/J	8ee-\J
.	.	.	8gg\L	.	8gg\L	.	.	.	.	.	.	.	.	.	.	.	.	.	8g/L	8ee-\L
.	.	.	16ff\L	.	16ff\L	.	.	.	.	.	.	.	.	.	.	.	.	.	16b-/L	16ff\L
.	.	.	16ee-\JJ	.	16ee-\JJ	.	.	.	.	.	.	.	.	.	.	.	.	.	16g/JJ	16ee-\JJ
=29	=29	=29	=29	=29	=29	=29	=29	=29	=29	=29	=29	=29	=29	=29	=29	=29	=29	=29	=29	=29
2B-\	.	.	8ff\L	.	8ff\L	.	2.ryy	.	.	2.ryy	.	.	.	.	.	.	.	.	8b-/L	8ff\L
.	.	.	8b-\	.	8b-\	.	.	.	.	.	.	.	.	.	.	.	.	.	16b-/L	16ff\L
.	.	.	.	.	.	.	.	.	.	.	.	.	.	.	.	.	.	.	16ee-/JJ	16gg\JJ
.	.	.	8dd\	.	8dd\	.	.	.	.	.	.	.	.	.	.	.	.	.	8b-/L	8ff\L
.	.	.	8ff\J	.	8ff\J	.	.	.	.	.	.	.	.	.	.	.	.	.	8b-/J	8ff\J
4BB-/	7	.	16aa-\LL	.	8aa-\L	.	.	.	.	.	.	.	.	.	.	.	.	.	8b-/L	8ff\L
.	.	.	16gg\	.	.	.	.	.	.	.	.	.	.	.	.	.	.	.	.	.
.	.	.	16aa-\	.	16gg\L	.	.	.	.	.	.	.	.	.	.	.	.	.	16g/L	16ee-\L
.	.	.	16ff\JJ	.	16ff\JJ	.	.	.	.	.	.	.	.	.	.	.	.	.	16b-/JJ	16ff\JJ
=30	=30	=30	=30	=30	=30	=30	=30	=30	=30	=30	=30	=30	=30	=30	=30	=30	=30	=30	=30	=30
2E-\	.	.	8gg\L	.	8gg\L	.	2.ryy	.	.	2.ryy	.	.	.	.	.	.	.	.	8ee-\L	8gg\L
.	.	.	8bb-\	.	8bb-\	.	.	.	.	.	.	.	.	.	.	.	.	.	8gg\J	8bb-\
!	!	!	!	!	!	!	!	!	!	!	!	!	!	!	!	!	!	!	!LO:TX:a:t=P:problem=mixed beam	!
.	.	.	8ee-\	.	8ee-\	.	.	.	.	.	.	.	.	.	.	.	.	.	8g/L	8ee-\
.	.	.	8gg\	.	8gg\	.	.	.	.	.	.	.	.	.	.	.	.	.	8ee-\	8gg\
4A-\	6	.	8b-\	.	8b-\	.	.	.	.	.	.	.	.	.	.	.	.	.	8ff\	8aa-\
.	5	.	8ee-\J	.	8ee-\J	.	.	.	.	.	.	.	.	.	.	.	.	.	8ee-/J	8gg\J
=31	=31	=31	=31	=31	=31	=31	=31	=31	=31	=31	=31	=31	=31	=31	=31	=31	=31	=31	=31	=31
!	!	!	!	!	!	!	!	!	!	!	!	!	!LO:N:vis=0	!	!	!	!	!	!	!
4B-\	.	.	8dd\L	.	8dd\L	.	2.ryy	.	.	2.ryy	.	.	1.r	.	.	1.r	.	.	8b-/L	8ff\L
.	.	.	8b-\J	.	8b-\J	.	.	.	.	.	.	.	.	.	.	.	.	.	16b-/L	16ff\L
.	.	.	.	.	.	.	.	.	.	.	.	.	.	.	.	.	.	.	16b-/JJ	16ff\JJ
8r	.	.	16ff\LL	.	16aa-\LL	.	.	.	.	.	.	.	.	.	.	.	.	.	8b-/L	8ff\L
.	.	.	16ee-\	.	16gg\	.	.	.	.	.	.	.	.	.	.	.	.	.	.	.
!LO:TX:a:t=P:problem=mixed beam	!	!	!	!	!	!	!	!	!	!	!	!	!	!	!	!	!	!	!	!
8BB-/L	7_	.	16dd\	.	16ff\	.	.	.	.	.	.	.	.	.	.	.	.	.	8b-/J	8ff\
.	.	.	16ee-\JJ	.	16gg\JJ	.	.	.	.	.	.	.	.	.	.	.	.	.	.	.
!	!	!	!LO:LB:g=original	!	!LO:LB:g=original	!	!	!	!	!	!	!	!	!	!	!	!	!	!	!
!	!	!	!	!	!	!	!	!	!	!	!	!	!	!	!	!	!	!	!LO:TX:a:t=P:problem=mixed beam	!
8B-\	.	.	16ff\LL	.	16aa-\LL	.	.	.	.	.	.	.	.	.	.	.	.	.	8b-/L	8ff\
.	.	.	16ee-\	.	16gg\	.	.	.	.	.	.	.	.	.	.	.	.	.	.	.
8BB-/J	.	.	16ff\	.	16aa-\	.	.	.	.	.	.	.	.	.	.	.	.	.	8ff\J	8bb-\J
.	x	.	16dd\JJ	.	16ff\JJ	.	.	.	.	.	.	.	.	.	.	.	.	.	.	.
!LO:LB:g=original	!	!	!	!	!	!	!	!	!	!	!	!	!	!	!	!	!	!	!	!
=32	=32	=32	=32	=32	=32	=32	=32	=32	=32	=32	=32	=32	=32	=32	=32	=32	=32	=32	=32	=32
4E-\	.	.	16b-/LL	.	16gg\LL	.	2.ryy	.	.	2.ryy	.	.	.	.	.	.	.	.	16gg\LL	16bb-\LL
.	.	.	16a-/	.	16ff\	.	.	.	.	.	.	.	.	.	.	.	.	.	16ff\	16aa-\
.	.	.	16g/	.	16ee-\	.	.	.	.	.	.	.	.	.	.	.	.	.	16ee-\	16gg\
.	.	.	16a-/JJ	.	16ff\JJ	.	.	.	.	.	.	.	.	.	.	.	.	.	16ff\JJ	16aa-\JJ
!LO:TX:a:t=P:problem=mixed beam	!	!	!	!	!	!	!	!	!	!	!	!	!	!	!	!	!	!	!	!
8G\L	.	.	16b-/LL	.	16gg\LL	.	.	.	.	.	.	.	.	.	.	.	.	.	16gg\LL	16bb-\LL
.	.	.	16a-/	.	16ff\	.	.	.	.	.	.	.	.	.	.	.	.	.	16ff\	16aa-\
8A-\	.	.	16b-/	.	16gg\	.	.	.	.	.	.	.	.	.	.	.	.	.	16gg\	16bb-\
.	.	.	16g/JJ	.	16ee-\JJ	.	.	.	.	.	.	.	.	.	.	.	.	.	16ee-\JJ	16gg\JJ
8B-\	.	.	8.f/L	.	8.ddt\L	.	.	.	.	.	.	.	.	.	.	.	.	.	8b-/L	8.ff\L
8BB-/J	4	.	.	.	.	.	.	.	.	.	.	.	.	.	.	.	.	.	16b-/L	.
.	3	.	16f/Jk	.	16dd\Jk	.	.	.	.	.	.	.	.	.	.	.	.	.	16b-/JJ	16ee-\Jk
=33	=33	=33	=33	=33	=33	=33	=33	=33	=33	=33	=33	=33	=33	=33	=33	=33	=33	=33	=33	=33
!	!	!	!	!	!LO:TX:a:t=P:problem=mixed beam	!	!	!	!	!	!	!	!	!	!	!	!	!	!	!LO:TX:a:t=P:problem=mixed beam
4E-\	.	.	8e-/L	.	8ee-\L	.	2.ryy	.	.	2.ryy	.	.	2.r	.	.	2.r	.	.	8g/L	8ee-\L
.	.	.	16e-/L	.	16e-/L	.	.	.	.	.	.	.	.	.	.	.	.	.	16g/L	16e-/L
.	.	.	16e-/JJ	.	16f/JJ	.	.	.	.	.	.	.	.	.	.	.	.	.	16g/JJ	16e-/JJ
8E-\L	.	.	8e-/L	.	8e-/L	.	.	.	.	.	.	.	.	.	.	.	.	.	8g/L	8e-/L
8F\	.	.	8e-/J	.	8e-/J	.	.	.	.	.	.	.	.	.	.	.	.	.	8g/J	8e-/J
8G\	.	.	4e-/	.	4e-/	.	.	.	.	.	.	.	.	.	.	.	.	.	4g/	4e-/
8F\J	.	.	.	.	.	.	.	.	.	.	.	.	.	.	.	.	.	.	.	.
=34	=34	=34	=34	=34	=34	=34	=34	=34	=34	=34	=34	=34	=34	=34	=34	=34	=34	=34	=34	=34
!	!	!	!LO:N:vis=00	!	!LO:N:vis=00	!	!	!	!	!	!	!	!	!	!	!	!	!	!LO:N:vis=00	!LO:N:vis=00
2.E-\	.	.	0.r	.	0.r	.	2.ryy	.	.	2.ryy	.	.	4.e-\	Gra-	.	4.g\	Gra-	.	0.r	0.r
.	.	.	.	.	.	.	.	.	.	.	.	.	8f\	-ti-	.	8a-\	-ti-	.	.	.
.	.	.	.	.	.	.	.	.	.	.	.	.	4g\	-a	.	4b-\	-a	.	.	.
=35	=35	=35	=35	=35	=35	=35	=35	=35	=35	=35	=35	=35	=35	=35	=35	=35	=35	=35	=35	=35
!LO:TX:a:t=P:problem=mixed beam	!	!	!	!	!	!	!	!	!	!	!	!	!	!	!	!	!	!	!	!
8AA-/L	.	.	.	.	.	.	2.ryy	.	.	2.ryy	.	.	2a-\	ple-	.	2cc\	ple-	.	.	.
8A-\	.	.	.	.	.	.	.	.	.	.	.	.	.	.	.	.	.	.	.	.
8c\	.	.	.	.	.	.	.	.	.	.	.	.	.	.	.	.	.	.	.	.
8A-\	.	.	.	.	.	.	.	.	.	.	.	.	.	.	.	.	.	.	.	.
8E-\	.	.	.	.	.	.	.	.	.	.	.	.	4g\	-na	.	4b-\	-na	.	.	.
8F\J	.	.	.	.	.	.	.	.	.	.	.	.	.	.	.	.	.	.	.	.
=36	=36	=36	=36	=36	=36	=36	=36	=36	=36	=36	=36	=36	=36	=36	=36	=36	=36	=36	=36	=36
4G\	6	.	.	.	.	.	2.ryy	.	.	2.ryy	.	.	4.g\	Do-	.	4.ee-\	Do-	.	.	.
4E-\	.	.	.	.	.	.	.	.	.	.	.	.	.	.	.	.	.	.	.	.
.	.	.	.	.	.	.	.	.	.	.	.	.	8f\	-mi-	.	8dd\	-mi-	.	.	.
4r	.	.	.	.	.	.	.	.	.	.	.	.	4g\	-nus	.	4ee-\	-nus	.	.	.
=37	=37	=37	=37	=37	=37	=37	=37	=37	=37	=37	=37	=37	=37	=37	=37	=37	=37	=37	=37	=37
8A-\L	.	.	.	.	.	.	2.ryy	.	.	2.ryy	.	.	2e-\	te-	.	2cc\	te-	.	.	.
16A-\L	.	.	.	.	.	.	.	.	.	.	.	.	.	.	.	.	.	.	.	.
16B-\JJ	.	.	.	.	.	.	.	.	.	.	.	.	.	.	.	.	.	.	.	.
8A-\L	.	.	.	.	.	.	.	.	.	.	.	.	.	.	.	.	.	.	.	.
8A-\J	.	.	.	.	.	.	.	.	.	.	.	.	.	.	.	.	.	.	.	.
8G\L	4 2	.	.	.	.	.	.	.	.	.	.	.	4e-\	-cum	.	4cc\	-cum	.	.	.
16A-\L	.	.	.	.	.	.	.	.	.	.	.	.	.	.	.	.	.	.	.	.
16G\JJ	.	.	.	.	.	.	.	.	.	.	.	.	.	.	.	.	.	.	.	.
=38	=38	=38	=38	=38	=38	=38	=38	=38	=38	=38	=38	=38	=38	=38	=38	=38	=38	=38	=38	=38
!	!	!	!LO:N:vis=00	!	!LO:N:vis=00	!	!	!	!	!	!	!	!	!	!	!	!	!	!LO:N:vis=00	!LO:N:vis=00
4F\	-	.	0.r	.	0.r	.	2.ryy	.	.	2.ryy	.	.	4.a-\	Do-	.	4.ff\	Do-	.	0.r	0.r
4FF/	.	.	.	.	.	.	.	.	.	.	.	.	.	.	.	.	.	.	.	.
.	.	.	.	.	.	.	.	.	.	.	.	.	8g\	-mi-	.	8ee-\	-mi-	.	.	.
4r	.	.	.	.	.	.	.	.	.	.	.	.	4a-\	-nus	.	4ff\	-nus	.	.	.
=39	=39	=39	=39	=39	=39	=39	=39	=39	=39	=39	=39	=39	=39	=39	=39	=39	=39	=39	=39	=39
8B-\L	.	.	.	.	.	.	2.ryy	.	.	2.ryy	.	.	2f\	te-	.	2dd\	te-	.	.	.
16B-\L	.	.	.	.	.	.	.	.	.	.	.	.	.	.	.	.	.	.	.	.
16c\JJ	.	.	.	.	.	.	.	.	.	.	.	.	.	.	.	.	.	.	.	.
8B-\L	.	.	.	.	.	.	.	.	.	.	.	.	.	.	.	.	.	.	.	.
8B-\J	.	.	.	.	.	.	.	.	.	.	.	.	.	.	.	.	.	.	.	.
8A-\L	4_ 2_	.	.	.	.	.	.	.	.	.	.	.	4f\	-cum	.	4dd\	-cum	.	.	.
16B-\L	.	.	.	.	.	.	.	.	.	.	.	.	.	.	.	.	.	.	.	.
16A-\JJ	x	.	.	.	.	.	.	.	.	.	.	.	.	.	.	.	.	.	.	.
!LO:LB:g=original	!	!	!	!	!	!	!	!	!	!	!	!	!	!	!	!	!	!	!	!
=40	=40	=40	=40	=40	=40	=40	=40	=40	=40	=40	=40	=40	=40	=40	=40	=40	=40	=40	=40	=40
4G\	.	.	.	.	.	.	2.ryy	.	.	2.ryy	.	.	4r	.	.	4r	.	.	.	.
4GG/	.	.	.	.	.	.	.	.	.	.	.	.	8b-\	be-	.	8gg\	be-	.	.	.
.	.	.	.	.	.	.	.	.	.	.	.	.	8a-\	-ne-	.	8ff\	-ne-	.	.	.
4r	.	.	.	.	.	.	.	.	.	.	.	.	8b-\	-dic-	.	8gg\	-dic-	.	.	.
.	.	.	.	.	.	.	.	.	.	.	.	.	8g\	-ta	.	8ee-\	-ta	.	.	.
=41	=41	=41	=41	=41	=41	=41	=41	=41	=41	=41	=41	=41	=41	=41	=41	=41	=41	=41	=41	=41
4BB-/	.	.	.	.	.	.	2.ryy	.	.	2.ryy	.	.	4.f\	tu	.	4.dd\	tu	.	.	.
4F\	n	.	.	.	.	.	.	.	.	.	.	.	.	.	.	.	.	.	.	.
.	.	.	.	.	.	.	.	.	.	.	.	.	8e-\	in	.	8cc\	in	.	.	.
4G\	-	.	.	.	.	.	.	.	.	.	.	.	4d\	mu-	.	4b-\	mu-	.	.	.
!	!	!	!	!	!	!	!	!	!	!	!	!	!LO:LB:g=original	!	!	!LO:LB:g=original	!	!	!	!
=42	=42	=42	=42	=42	=42	=42	=42	=42	=42	=42	=42	=42	=42	=42	=42	=42	=42	=42	=42	=42
!	!	!	!	!	!	!	!	!	!	!	!	!	!	!	!	!	!	!	!LO:N:vis=00	!LO:N:vis=00
4E-\	6 5	.	2.r	.	2.r	.	2.ryy	.	.	2.ryy	.	.	4c/	-li-	.	8cc\L	-li-	.	0.r	0.r
.	.	.	.	.	.	.	.	.	.	.	.	.	.	.	.	8b-\J	.	.	.	.
4F\	.	.	.	.	.	.	.	.	.	.	.	.	4.c/	-e-	.	4b-\	-e-	.	.	.
4FF/	4	.	.	.	.	.	.	.	.	.	.	.	.	.	.	4an\	-ri-	.	.	.
.	3	.	.	.	.	.	.	.	.	.	.	.	8B-/	-ri-	.	.	.	.	.	.
=43	=43	=43	=43	=43	=43	=43	=43	=43	=43	=43	=43	=43	=43	=43	=43	=43	=43	=43	=43	=43
4BB-/	.	.	8B-/L	.	8B-/L	.	2.ryy	.	.	2.ryy	.	.	4B-/	-bus	.	4b-\	-bus	.	.	.
.	.	.	16B-/L	.	16B-/L	.	.	.	.	.	.	.	.	.	.	.	.	.	.	.
.	.	.	16c/JJ	.	16c/JJ	.	.	.	.	.	.	.	.	.	.	.	.	.	.	.
8BB-/L	.	.	8B-/L	.	8B-/L	.	.	.	.	.	.	.	4r	.	.	4r	.	.	.	.
8C/	.	.	8B-/J	.	8B-/J	.	.	.	.	.	.	.	.	.	.	.	.	.	.	.
8D/	.	.	8B-/L	.	8B-/L	.	.	.	.	.	.	.	4r	.	.	4r	.	.	.	.
8BB-/J	.	.	16An/L	.	16An/L	.	.	.	.	.	.	.	.	.	.	.	.	.	.	.
.	.	.	16B-/JJ	.	16B-/JJ	.	.	.	.	.	.	.	.	.	.	.	.	.	.	.
=44	=44	=44	=44	=44	=44	=44	=44	=44	=44	=44	=44	=44	=44	=44	=44	=44	=44	=44	=44	=44
!	!	!	!	!	!	!	!	!	!	!	!	!	!LO:N:vis=00	!	!	!	!	!	!	!
4E-\	6	.	8c/L	.	8c/L	.	2.ryy	.	.	2.ryy	.	.	0.r	.	.	0.r	.	.	.	.
.	.	.	16c/L	.	16c/L	.	.	.	.	.	.	.	.	.	.	.	.	.	.	.
.	.	.	16d/JJ	.	16d/JJ	.	.	.	.	.	.	.	.	.	.	.	.	.	.	.
8E-\L	.	.	8c/L	.	8c/L	.	.	.	.	.	.	.	.	.	.	.	.	.	.	.
8C\J	.	.	8c/J	.	8c/J	.	.	.	.	.	.	.	.	.	.	.	.	.	.	.
8AAn/L	6	.	8c/L	.	8c/L	.	.	.	.	.	.	.	.	.	.	.	.	.	.	.
8FF/J	n	.	16B-/L	.	16B-/L	.	.	.	.	.	.	.	.	.	.	.	.	.	.	.
.	.	.	16c/JJ	.	16c/JJ	.	.	.	.	.	.	.	.	.	.	.	.	.	.	.
=45	=45	=45	=45	=45	=45	=45	=45	=45	=45	=45	=45	=45	=45	=45	=45	=45	=45	=45	=45	=45
!	!	!	!LO:TX:a:t=P:problem=mixed beam	!	!LO:TX:a:t=P:problem=mixed beam	!	!	!	!	!	!	!	!	!	!	!	!	!	!	!
2BB-/	.	.	8d/L	.	8d/L	.	2.ryy	.	.	2.ryy	.	.	.	.	.	.	.	.	.	.
.	.	.	8ff\	.	8ff\	.	.	.	.	.	.	.	.	.	.	.	.	.	.	.
.	.	.	8B-/	.	8B-/	.	.	.	.	.	.	.	.	.	.	.	.	.	.	.
.	.	.	8dd\	.	8dd\	.	.	.	.	.	.	.	.	.	.	.	.	.	.	.
4E-\	6	.	8G/	.	8G/	.	.	.	.	.	.	.	.	.	.	.	.	.	.	.
.	5	.	8b-\J	.	8b-\J	.	.	.	.	.	.	.	.	.	.	.	.	.	.	.
!	!	!	!LO:LB:g=original	!	!	!	!	!	!	!	!	!	!	!	!	!	!	!	!LO:LB:g=original	!
=46	=46	=46	=46	=46	=46	=46	=46	=46	=46	=46	=46	=46	=46	=46	=46	=46	=46	=46	=46	=46
4F\	n	.	8an/L	.	8an/L	.	2.ryy	.	.	2.ryy	.	.	.	.	.	.	.	.	8r	8r
.	.	.	8f/J	.	8f/J	.	.	.	.	.	.	.	.	.	.	.	.	.	8ff\L	8ff\L
!	!	!	!	!	!LO:LB:g=original	!	!	!	!	!	!	!	!	!	!	!	!	!	!	!
8r	.	.	16cc\LL	.	16ee-\LL	.	.	.	.	.	.	.	.	.	.	.	.	.	8ff\	8ccc\
.	.	.	16b-\	.	16dd\	.	.	.	.	.	.	.	.	.	.	.	.	.	.	.
!LO:TX:a:t=P:problem=mixed beam	!	!	!	!	!	!	!	!	!	!	!	!	!	!	!	!	!	!	!	!
8FF/L	7_ n_	.	16an\	.	16cc\	.	.	.	.	.	.	.	.	.	.	.	.	.	8ff\	8ccc\J
.	.	.	16b-\JJ	.	16dd\JJ	.	.	.	.	.	.	.	.	.	.	.	.	.	.	.
8F\	.	.	16cc\LL	.	16ee-\LL	.	.	.	.	.	.	.	.	.	.	.	.	.	8ff\	16ccc\LL
.	.	.	16b-\	.	16dd\	.	.	.	.	.	.	.	.	.	.	.	.	.	.	16bb-\
8FF/J	.	.	16cc\	.	16ee-\	.	.	.	.	.	.	.	.	.	.	.	.	.	8ff\J	16ccc\
!	!	!	!LO:SIC:s=:v:kasownik przed "c" na wysokości "a" i nad nutą	!	!	!	!	!	!	!	!	!	!	!	!	!	!	!	!	!
.	x	.	16an\JJ	.	16cc\JJ	.	.	.	.	.	.	.	.	.	.	.	.	.	.	16aaX\JJ
=47	=47	=47	=47	=47	=47	=47	=47	=47	=47	=47	=47	=47	=47	=47	=47	=47	=47	=47	=47	=47
4BB-/	.	.	16f/LL	.	16dd\LL	.	2.ryy	.	.	2.ryy	.	.	.	.	.	.	.	.	8ff\L	8bb-\L
.	.	.	16e-/	.	16cc\	.	.	.	.	.	.	.	.	.	.	.	.	.	.	.
.	.	.	16d/	.	16b-\	.	.	.	.	.	.	.	.	.	.	.	.	.	8ff\J	8ff\J
.	.	.	16e-/JJ	.	16cc\JJ	.	.	.	.	.	.	.	.	.	.	.	.	.	.	.
!	!	!	!	!	!	!	!	!	!	!	!	!	!	!	!	!	!	!	!	!LO:LB:g=original
!LO:TX:a:t=P:problem=mixed beam	!	!	!	!	!	!	!	!	!	!	!	!	!	!	!	!	!	!	!	!
8D\L	.	.	16f/LL	.	16dd\LL	.	.	.	.	.	.	.	.	.	.	.	.	.	8gg\L	8bb-\L
.	.	.	16e-/	.	16cc\	.	.	.	.	.	.	.	.	.	.	.	.	.	.	.
8E-\	.	.	16f/	.	16dd\	.	.	.	.	.	.	.	.	.	.	.	.	.	8gg\J	8bb-\
.	.	.	16d/JJ	.	16b-\JJ	.	.	.	.	.	.	.	.	.	.	.	.	.	.	.
8F\	.	.	8.c/L	.	8.an/L	.	.	.	.	.	.	.	.	.	.	.	.	.	8.ff\L	8bb-\
8FF/J	4	.	.	.	.	.	.	.	.	.	.	.	.	.	.	.	.	.	.	8aaX\J
.	3	.	16c/Jk	.	16a/Jk	.	.	.	.	.	.	.	.	.	.	.	.	.	16ff\Jk	.
=48	=48	=48	=48	=48	=48	=48	=48	=48	=48	=48	=48	=48	=48	=48	=48	=48	=48	=48	=48	=48
!	!	!	!	!	!	!	!	!	!	!	!	!	!	!	!	!	!	!	!LO:TX:a:t=P:problem=mixed beam	!LO:TX:a:t=P:problem=mixed beam
4BB-/	.	.	8d/L	.	8b-/L	.	2.ryy	.	.	2.ryy	.	.	2.r	.	.	2.r	.	.	8ff\L	8bb-\L
.	.	.	16B-/L	.	16B-/L	.	.	.	.	.	.	.	.	.	.	.	.	.	16b-/L	16b-/L
.	.	.	16c/JJ	.	16c/JJ	.	.	.	.	.	.	.	.	.	.	.	.	.	16b-/JJ	16b-/JJ
8B-\L	.	.	8B-/L	.	8B-/L	.	.	.	.	.	.	.	.	.	.	.	.	.	8b-/L	8b-/L
8c\	.	.	8B-/J	.	8B-/J	.	.	.	.	.	.	.	.	.	.	.	.	.	8b-/J	8b-/J
8d\	.	.	4B-/	.	4B-/	.	.	.	.	.	.	.	.	.	.	.	.	.	4b-/	4b-/
8c\J	.	.	.	.	.	.	.	.	.	.	.	.	.	.	.	.	.	.	.	.
!LO:LB:g=original	!	!	!	!	!	!	!	!	!	!	!	!	!	!	!	!	!	!	!	!
=49	=49	=49	=49	=49	=49	=49	=49	=49	=49	=49	=49	=49	=49	=49	=49	=49	=49	=49	=49	=49
!	!	!	!	!	!	!	!	!	!	!	!	!	!	!	!	!	!	!	!LO:N:vis=0	!LO:N:vis=0
2B-\	.	.	2.r	.	2.r	.	2.ryy	.	.	2.ryy	.	.	4.d\	gra-	.	4.b-\	gra-	.	1.r	1.r
.	.	.	.	.	.	.	.	.	.	.	.	.	8e-\	-ti-	.	8cc\	-ti-	.	.	.
4BB-/	.	.	.	.	.	.	.	.	.	.	.	.	4f\	-a	.	4dd\	-a	.	.	.
=50	=50	=50	=50	=50	=50	=50	=50	=50	=50	=50	=50	=50	=50	=50	=50	=50	=50	=50	=50	=50
4E-\	.	.	8r	.	8r	.	2.ryy	.	.	2.ryy	.	.	2g\	ple-	.	2ee-\	ple-	.	.	.
.	.	.	16b-\LL	.	16b-\LL	.	.	.	.	.	.	.	.	.	.	.	.	.	.	.
.	.	.	16cc\JJ	.	16cc\JJ	.	.	.	.	.	.	.	.	.	.	.	.	.	.	.
8G\L	.	.	8b-\L	.	8b-\L	.	.	.	.	.	.	.	.	.	.	.	.	.	.	.
8E-\J	.	.	8b-\J	.	8b-\J	.	.	.	.	.	.	.	.	.	.	.	.	.	.	.
8BB-/L	.	.	8b-\L	.	8b-\L	.	.	.	.	.	.	.	4f\	-na	.	4dd\	-na	.	.	.
8D/J	.	.	16an\L	.	16an\L	.	.	.	.	.	.	.	.	.	.	.	.	.	.	.
.	.	.	16b-\JJ	.	16b-\JJ	.	.	.	.	.	.	.	.	.	.	.	.	.	.	.
=51	=51	=51	=51	=51	=51	=51	=51	=51	=51	=51	=51	=51	=51	=51	=51	=51	=51	=51	=51	=51
4E-\	6	.	8cc\L	.	8cc\L	.	2.ryy	.	.	2.ryy	.	.	2.r	.	.	2.r	.	.	8r	8r
.	.	.	16cc\L	.	16cc\L	.	.	.	.	.	.	.	.	.	.	.	.	.	8ee-\L	8gg\L
.	.	.	16dd\JJ	.	16dd\JJ	.	.	.	.	.	.	.	.	.	.	.	.	.	.	.
!LO:TX:a:t=P:problem=mixed beam	!	!	!	!	!	!	!	!	!	!	!	!	!	!	!	!	!	!	!	!
8E-\L	.	.	8cc\L	.	8cc\L	.	.	.	.	.	.	.	.	.	.	.	.	.	8gg\	8bb-\
8C\	.	.	8cc\J	.	8cc\J	.	.	.	.	.	.	.	.	.	.	.	.	.	8gg\J	8bb-\
8F\	.	.	8cc\L	.	8cc\L	.	.	.	.	.	.	.	.	.	.	.	.	.	8.ff\L	8bb-\
8FF/J	4	.	16b-\L	.	16b-\L	.	.	.	.	.	.	.	.	.	.	.	.	.	.	8aaX\J
.	3	.	16cc\JJ	.	16cc\JJ	.	.	.	.	.	.	.	.	.	.	.	.	.	16ff\Jk	.
!	!	!	!LO:LB:g=original	!	!	!	!	!	!	!	!	!	!	!	!	!	!	!	!	!
=52	=52	=52	=52	=52	=52	=52	=52	=52	=52	=52	=52	=52	=52	=52	=52	=52	=52	=52	=52	=52
2.BB-/	.	.	8dd\L	.	8dd\L	.	2.ryy	.	.	2.ryy	.	.	4.d\	gra-	.	4.b-\	gra-	.	4ff\	4bb-\
.	.	.	8b-\J	.	8b-\J	.	.	.	.	.	.	.	.	.	.	.	.	.	.	.
.	.	.	4B-/	.	4B-/	.	.	.	.	.	.	.	.	.	.	.	.	.	4r	4r
.	.	.	.	.	.	.	.	.	.	.	.	.	8e-\	-ti-	.	8cc\	-ti-	.	.	.
.	.	.	4r	.	4r	.	.	.	.	.	.	.	4f\	-a	.	4dd\	-a	.	4r	4r
!	!	!	!	!	!LO:LB:g=original	!	!	!	!	!	!	!	!	!	!	!	!	!	!	!
=53	=53	=53	=53	=53	=53	=53	=53	=53	=53	=53	=53	=53	=53	=53	=53	=53	=53	=53	=53	=53
!	!	!	!LO:N:vis=00	!	!LO:N:vis=00	!	!	!	!	!	!	!	!	!	!	!	!	!	!LO:N:vis=00	!LO:N:vis=00
4E-\	.	.	0.r	.	0.r	.	2.ryy	.	.	2.ryy	.	.	2g\	ple-	.	2ee-\	ple-	.	0.r	0.r
8G\L	6	.	.	.	.	.	.	.	.	.	.	.	.	.	.	.	.	.	.	.
8E-\J	.	.	.	.	.	.	.	.	.	.	.	.	.	.	.	.	.	.	.	.
8BB-/L	.	.	.	.	.	.	.	.	.	.	.	.	4f\	-na	.	4dd\	-na	.	.	.
8C/J	.	.	.	.	.	.	.	.	.	.	.	.	.	.	.	.	.	.	.	.
=54	=54	=54	=54	=54	=54	=54	=54	=54	=54	=54	=54	=54	=54	=54	=54	=54	=54	=54	=54	=54
4D/	6	.	.	.	.	.	2.ryy	.	.	2.ryy	.	.	4.d\	Do-	.	4.b-\	Do-	.	.	.
4BB-/	.	.	.	.	.	.	.	.	.	.	.	.	.	.	.	.	.	.	.	.
.	.	.	.	.	.	.	.	.	.	.	.	.	8c\	-mi-	.	8an\	-mi-	.	.	.
4r	.	.	.	.	.	.	.	.	.	.	.	.	4d\	-nus	.	4b-\	-nus	.	.	.
=55	=55	=55	=55	=55	=55	=55	=55	=55	=55	=55	=55	=55	=55	=55	=55	=55	=55	=55	=55	=55
8E-\L	.	.	.	.	.	.	2.ryy	.	.	2.ryy	.	.	2B-/	te-	.	2g/	te-	.	.	.
16E-\L	.	.	.	.	.	.	.	.	.	.	.	.	.	.	.	.	.	.	.	.
16F\JJ	.	.	.	.	.	.	.	.	.	.	.	.	.	.	.	.	.	.	.	.
8E-\L	.	.	.	.	.	.	.	.	.	.	.	.	.	.	.	.	.	.	.	.
8E-\J	.	.	.	.	.	.	.	.	.	.	.	.	.	.	.	.	.	.	.	.
8D\L	.	.	.	.	.	.	.	.	.	.	.	.	4B-/	-cum	.	4g/	-cum	.	.	.
16E-\L	.	.	.	.	.	.	.	.	.	.	.	.	.	.	.	.	.	.	.	.
16D\JJ	.	.	.	.	.	.	.	.	.	.	.	.	.	.	.	.	.	.	.	.
=56	=56	=56	=56	=56	=56	=56	=56	=56	=56	=56	=56	=56	=56	=56	=56	=56	=56	=56	=56	=56
4C/	.	.	.	.	.	.	2.ryy	.	.	2.ryy	.	.	4.e-\	Do-	.	4.cc\	Do-	.	.	.
4CC/	.	.	.	.	.	.	.	.	.	.	.	.	.	.	.	.	.	.	.	.
.	.	.	.	.	.	.	.	.	.	.	.	.	8d\	-mi-	.	8b-\	-mi-	.	.	.
4r	.	.	.	.	.	.	.	.	.	.	.	.	4e-\	-nus	.	4cc\	-nus	.	.	.
=57	=57	=57	=57	=57	=57	=57	=57	=57	=57	=57	=57	=57	=57	=57	=57	=57	=57	=57	=57	=57
!	!	!	!LO:N:vis=00	!	!LO:N:vis=00	!	!	!	!	!	!	!	!	!	!	!	!	!	!LO:N:vis=00	!LO:N:vis=00
8F\L	n	.	0.r	.	0.r	.	2.ryy	.	.	2.ryy	.	.	2c/	te-	.	2an\	te-	.	0.r	0.r
16F\L	.	.	.	.	.	.	.	.	.	.	.	.	.	.	.	.	.	.	.	.
16G\JJ	.	.	.	.	.	.	.	.	.	.	.	.	.	.	.	.	.	.	.	.
8F\L	.	.	.	.	.	.	.	.	.	.	.	.	.	.	.	.	.	.	.	.
8F\J	n	.	.	.	.	.	.	.	.	.	.	.	.	.	.	.	.	.	.	.
8E-\L	4_ 2_	.	.	.	.	.	.	.	.	.	.	.	4c/	-cum	.	4a\	-cum	.	.	.
16F\L	.	.	.	.	.	.	.	.	.	.	.	.	.	.	.	.	.	.	.	.
16E-\JJ	x	.	.	.	.	.	.	.	.	.	.	.	.	.	.	.	.	.	.	.
!LO:LB:g=original	!	!	!	!	!	!	!	!	!	!	!	!	!LO:LB:g=original	!	!	!	!	!	!	!
=58	=58	=58	=58	=58	=58	=58	=58	=58	=58	=58	=58	=58	=58	=58	=58	=58	=58	=58	=58	=58
4D/	.	.	.	.	.	.	2.ryy	.	.	2.ryy	.	.	4r	.	.	4r	.	.	.	.
4DD/	.	.	.	.	.	.	.	.	.	.	.	.	8f\	be-	.	8dd\	be-	.	.	.
.	.	.	.	.	.	.	.	.	.	.	.	.	8e-\	-ne-	.	8cc\	-ne-	.	.	.
4r	.	.	.	.	.	.	.	.	.	.	.	.	8f\	-dic-	.	8dd\	-dic-	.	.	.
.	.	.	.	.	.	.	.	.	.	.	.	.	8d\	-ta	.	8b-\	-ta	.	.	.
=59	=59	=59	=59	=59	=59	=59	=59	=59	=59	=59	=59	=59	=59	=59	=59	=59	=59	=59	=59	=59
8F\L	n_	.	.	.	.	.	2.ryy	.	.	2.ryy	.	.	4.c/	tu	.	4.an\	tu	.	.	.
8E-\	.	.	.	.	.	.	.	.	.	.	.	.	.	.	.	.	.	.	.	.
8F\	.	.	.	.	.	.	.	.	.	.	.	.	.	.	.	.	.	.	.	.
8E-\J	.	.	.	.	.	.	.	.	.	.	.	.	8c/	in	.	8a\	in	.	.	.
4D/	x	.	.	.	.	.	.	.	.	.	.	.	4d\	mu-	.	4b-\	mu-	.	.	.
=60	=60	=60	=60	=60	=60	=60	=60	=60	=60	=60	=60	=60	=60	=60	=60	=60	=60	=60	=60	=60
4E-\	6	.	.	.	.	.	2.ryy	.	.	2.ryy	.	.	4c/	-li-	.	(8cc\L	-li-	.	.	.
.	.	.	.	.	.	.	.	.	.	.	.	.	.	.	.	8dd\J)	.	.	.	.
4F\	.	.	.	.	.	.	.	.	.	.	.	.	4.c/	-e-	.	4b-\	-e-	.	.	.
.	x 4	.	.	.	.	.	.	.	.	.	.	.	.	.	.	.	.	.	.	.
4FF/	5	.	.	.	.	.	.	.	.	.	.	.	.	.	.	4an\	-ri-	.	.	.
.	x 3	.	.	.	.	.	.	.	.	.	.	.	8B-/	-ri-	.	.	.	.	.	.
=61	=61	=61	=61	=61	=61	=61	=61	=61	=61	=61	=61	=61	=61	=61	=61	=61	=61	=61	=61	=61
!	!	!	!	!	!	!	!	!	!	!	!	!	!	!	!	!	!	!	!LO:N:vis=00	!LO:N:vis=00
4BB-/	.	.	8r	.	8r	.	2.ryy	.	.	2.ryy	.	.	4B-/	-bus	.	4b-\	-bus	.	0.r	0.r
.	.	.	8b-\L	.	8b-\L	.	.	.	.	.	.	.	.	.	.	.	.	.	.	.
8r	.	.	8ff\	.	8ff\	.	.	.	.	.	.	.	4r	.	.	4r	.	.	.	.
!LO:TX:a:t=P:problem=mixed beam	!	!	!	!	!	!	!	!	!	!	!	!	!	!	!	!	!	!	!	!
8BB-/L	.	.	8ff\J	.	8ff\J	.	.	.	.	.	.	.	.	.	.	.	.	.	.	.
8B-\	.	.	16ff\LL	.	16ff\LL	.	.	.	.	.	.	.	4r	.	.	4r	.	.	.	.
.	.	.	16ee-\	.	16ee-\	.	.	.	.	.	.	.	.	.	.	.	.	.	.	.
8An\J	.	.	16dd\	.	16dd\	.	.	.	.	.	.	.	.	.	.	.	.	.	.	.
.	.	.	16ee-\JJ	.	16ee-\JJ	.	.	.	.	.	.	.	.	.	.	.	.	.	.	.
=62	=62	=62	=62	=62	=62	=62	=62	=62	=62	=62	=62	=62	=62	=62	=62	=62	=62	=62	=62	=62
!	!	!	!	!	!	!	!	!	!	!	!	!	!LO:N:vis=00	!	!	!	!	!	!	!
4G\	7	.	8ff\L	.	8ff\L	.	2.ryy	.	.	2.ryy	.	.	0.r	.	.	0.r	.	.	.	.
.	.	.	8b-\	.	8b-\	.	.	.	.	.	.	.	.	.	.	.	.	.	.	.
8r	.	.	8ee-\	.	8ee-\	.	.	.	.	.	.	.	.	.	.	.	.	.	.	.
!LO:TX:a:t=P:problem=mixed beam	!	!	!	!	!	!	!	!	!	!	!	!	!	!	!	!	!	!	!	!
8C/L	-	.	8ee-\J	.	8ee-\J	.	.	.	.	.	.	.	.	.	.	.	.	.	.	.
8c\	.	.	16ee-\LL	.	16ee-\LL	.	.	.	.	.	.	.	.	.	.	.	.	.	.	.
.	.	.	16dd\	.	16dd\	.	.	.	.	.	.	.	.	.	.	.	.	.	.	.
8B-\J	.	.	16cc\	.	16cc\	.	.	.	.	.	.	.	.	.	.	.	.	.	.	.
.	.	.	16dd\JJ	.	16dd\JJ	.	.	.	.	.	.	.	.	.	.	.	.	.	.	.
=63	=63	=63	=63	=63	=63	=63	=63	=63	=63	=63	=63	=63	=63	=63	=63	=63	=63	=63	=63	=63
4An\	5	.	8ee-\L	.	8ee-\L	.	2.ryy	.	.	2.ryy	.	.	.	.	.	.	.	.	.	.
.	.	.	8an\J	.	8an\J	.	.	.	.	.	.	.	.	.	.	.	.	.	.	.
8r	.	.	8ee-\L	.	8ee-\L	.	.	.	.	.	.	.	.	.	.	.	.	.	.	.
8F\L	7	.	8ee-\J	.	8ee-\J	.	.	.	.	.	.	.	.	.	.	.	.	.	.	.
8c\	-	.	16ee-\LL	.	16ee-\LL	.	.	.	.	.	.	.	.	.	.	.	.	.	.	.
.	.	.	16dd\	.	16dd\	.	.	.	.	.	.	.	.	.	.	.	.	.	.	.
8B-\J	.	.	16cc\	.	16cc\	.	.	.	.	.	.	.	.	.	.	.	.	.	.	.
.	.	.	16dd\JJ	.	16dd\JJ	.	.	.	.	.	.	.	.	.	.	.	.	.	.	.
=64	=64	=64	=64	=64	=64	=64	=64	=64	=64	=64	=64	=64	=64	=64	=64	=64	=64	=64	=64	=64
!	!	!	!LO:TX:a:t=P:problem=mixed beam	!	!LO:TX:a:t=P:problem=mixed beam	!	!	!	!	!	!	!	!	!	!	!	!	!	!	!
4An\	6 5	.	8ee-\L	.	8ee-\L	.	2.ryy	.	.	2.ryy	.	.	.	.	.	.	.	.	.	.
.	.	.	8f/J	.	8f/J	.	.	.	.	.	.	.	.	.	.	.	.	.	.	.
8A\L	.	.	8r	.	8r	.	.	.	.	.	.	.	.	.	.	.	.	.	.	.
8c\	.	.	8ee-\L	.	8ee-\L	.	.	.	.	.	.	.	.	.	.	.	.	.	.	.
8B-\	.	.	8dd\	.	8dd\	.	.	.	.	.	.	.	.	.	.	.	.	.	.	.
8A\J	.	.	8cc\J	.	8cc\J	.	.	.	.	.	.	.	.	.	.	.	.	.	.	.
=65	=65	=65	=65	=65	=65	=65	=65	=65	=65	=65	=65	=65	=65	=65	=65	=65	=65	=65	=65	=65
4B-\	.	.	8dd\L	.	8dd\L	.	2.ryy	.	.	2.ryy	.	.	.	.	.	.	.	.	8r	8r
.	.	.	8ff\	.	8ff\	.	.	.	.	.	.	.	.	.	.	.	.	.	8ff\L	8ff\L
4F\	.	.	8bb-\	.	8bb-\	.	.	.	.	.	.	.	.	.	.	.	.	.	8ff\	8bb-\
.	.	.	8b-\J	.	8b-\J	.	.	.	.	.	.	.	.	.	.	.	.	.	8gg\J	8bb-\
4FF/	4	.	8f/L	.	8f/L	.	.	.	.	.	.	.	.	.	.	.	.	.	8.ff\L	8bb-\
.	3	.	8an/J	.	8an/J	.	.	.	.	.	.	.	.	.	.	.	.	.	.	8aaX\J
.	.	.	.	.	.	.	.	.	.	.	.	.	.	.	.	.	.	.	16ff\Jk	.
=66	=66	=66	=66	=66	=66	=66	=66	=66	=66	=66	=66	=66	=66	=66	=66	=66	=66	=66	=66	=66
!LO:TX:a:t=P:problem=mixed beam	!	!	!	!	!	!	!	!	!	!	!	!	!	!	!	!	!	!	!	!LO:TX:a:t=P:problem=mixed beam
8BB-/L	.	.	8b-/L	.	8b-/L	.	2.ryy	.	.	2.ryy	.	.	2.r	.	.	2.r	.	.	8ff\L	8bb-\L
16B-\L	.	.	16B-/L	.	16B-/L	.	.	.	.	.	.	.	.	.	.	.	.	.	16b-\L	16b-/L
16c\JJ	.	.	16c/JJ	.	16c/JJ	.	.	.	.	.	.	.	.	.	.	.	.	.	16b-\JJ	16b-/JJ
8B-\L	.	.	8B-/L	.	8B-/L	.	.	.	.	.	.	.	.	.	.	.	.	.	8b-/L	8b-/L
8B-\J	.	.	8B-/J	.	8B-/J	.	.	.	.	.	.	.	.	.	.	.	.	.	8b-/J	8b-/J
8A-X\L	4_ 2_	.	4B-/	.	4B-/	.	.	.	.	.	.	.	.	.	.	.	.	.	4b-/	4b-/
16B-\L	.	.	.	.	.	.	.	.	.	.	.	.	.	.	.	.	.	.	.	.
16A-\JJ	x	.	.	.	.	.	.	.	.	.	.	.	.	.	.	.	.	.	.	.
!LO:LB:g=original	!	!	!LO:LB:g=original	!	!	!	!	!	!	!	!	!	!	!	!	!	!	!	!	!
=67	=67	=67	=67	=67	=67	=67	=67	=67	=67	=67	=67	=67	=67	=67	=67	=67	=67	=67	=67	=67
!	!	!	!LO:N:vis=0	!	!LO:N:vis=0	!	!	!	!	!	!	!	!	!	!	!	!	!	!LO:N:vis=0	!LO:N:vis=0
4G\	6	.	1.r	.	1.r	.	2.ryy	.	.	2.ryy	.	.	4.g\	gra-	.	4.ee-\	gra-	.	1.r	1.r
4E-\	.	.	.	.	.	.	.	.	.	.	.	.	.	.	.	.	.	.	.	.
.	.	.	.	.	.	.	.	.	.	.	.	.	8f\	-ti-	.	8dd\	-ti-	.	.	.
4r	.	.	.	.	.	.	.	.	.	.	.	.	4g\	-a	.	4ee-\	-a	.	.	.
=68	=68	=68	=68	=68	=68	=68	=68	=68	=68	=68	=68	=68	=68	=68	=68	=68	=68	=68	=68	=68
8A-\L	.	.	.	.	.	.	2.ryy	.	.	2.ryy	.	.	2e-\	ple-	.	2cc\	ple-	.	.	.
16A-\L	.	.	.	.	.	.	.	.	.	.	.	.	.	.	.	.	.	.	.	.
16B-\JJ	.	.	.	.	.	.	.	.	.	.	.	.	.	.	.	.	.	.	.	.
8A-\L	.	.	.	.	.	.	.	.	.	.	.	.	.	.	.	.	.	.	.	.
8A-\J	.	.	.	.	.	.	.	.	.	.	.	.	.	.	.	.	.	.	.	.
8G\L	.	.	.	.	.	.	.	.	.	.	.	.	4e-\	-na	.	4cc\	-na	.	.	.
16A-\L	.	.	.	.	.	.	.	.	.	.	.	.	.	.	.	.	.	.	.	.
16G\JJ	.	.	.	.	.	.	.	.	.	.	.	.	.	.	.	.	.	.	.	.
=69	=69	=69	=69	=69	=69	=69	=69	=69	=69	=69	=69	=69	=69	=69	=69	=69	=69	=69	=69	=69
4F\	-	.	2.r	.	2.r	.	2.ryy	.	.	2.ryy	.	.	4.a-\	Do-	.	4.ff\	Do-	.	2.r	2.r
4FF/	.	.	.	.	.	.	.	.	.	.	.	.	.	.	.	.	.	.	.	.
.	.	.	.	.	.	.	.	.	.	.	.	.	8g\	-mi-	.	8ee-\	-mi-	.	.	.
4r	.	.	.	.	.	.	.	.	.	.	.	.	4a-\	-nus	.	4ff\	-nus	.	.	.
!	!	!	!	!	!LO:LB:g=original	!	!	!	!	!	!	!	!	!	!	!	!	!	!LO:LB:g=original	!
=70	=70	=70	=70	=70	=70	=70	=70	=70	=70	=70	=70	=70	=70	=70	=70	=70	=70	=70	=70	=70
8B-\L	.	.	8r	.	8r	.	2.ryy	.	.	2.ryy	.	.	2f\	te-	.	2dd\	te-	.	8r	8r
!	!	!	!LO:TX:a:t=P:problem=mixed beam	!	!	!	!	!	!	!	!	!	!	!	!	!	!	!	!	!
16B-\L	.	.	8d/L	.	8b-/	.	.	.	.	.	.	.	.	.	.	.	.	.	8b-/L	8ff\L
16c\JJ	.	.	.	.	.	.	.	.	.	.	.	.	.	.	.	.	.	.	.	.
!	!	!	!	!	!	!	!	!	!	!	!	!	!	!	!	!	!	!	!6	!6
8B-\L	.	.	8dd\	.	8ff\L	.	.	.	.	.	.	.	.	.	.	.	.	.	8b-/	8ff\
!	!	!	!	!	!	!	!	!	!	!	!	!	!	!	!	!	!	!	!6	!6
8B-\J	.	.	8dd\J	.	8ff\J	.	.	.	.	.	.	.	.	.	.	.	.	.	8b-/J	8ff\J
8A-\L	4 2	.	16dd\LL	.	16ff\LL	.	.	.	.	.	.	.	4f\	-cum	.	4dd\	-cum	.	8b-/L	8ff\L
.	.	.	16cc\	.	16ee-\	.	.	.	.	.	.	.	.	.	.	.	.	.	.	.
16B-\L	.	.	16b-\	.	16dd\	.	.	.	.	.	.	.	.	.	.	.	.	.	16g/L	16ee-\L
16A-\JJ	.	.	16dd\JJ	.	16ff\JJ	.	.	.	.	.	.	.	.	.	.	.	.	.	16b-/JJ	16ff\JJ
=71	=71	=71	=71	=71	=71	=71	=71	=71	=71	=71	=71	=71	=71	=71	=71	=71	=71	=71	=71	=71
4G\	6	.	4ee-\	.	8gg\L	.	2.ryy	.	.	2.ryy	.	.	4r	.	.	4r	.	.	4ee-\	4gg\
.	.	.	.	.	8b-\J	.	.	.	.	.	.	.	.	.	.	.	.	.	.	.
4E-\	.	.	2r	.	4e-/	.	.	.	.	.	.	.	8b-\	be-	.	8gg\	be-	.	4r	4r
.	.	.	.	.	.	.	.	.	.	.	.	.	8a-\	-ne-	.	8ff\	-ne-	.	.	.
4r	.	.	.	.	4r	.	.	.	.	.	.	.	8b-\	-dic-	.	8gg\	-dic-	.	4r	4r
.	.	.	.	.	.	.	.	.	.	.	.	.	8a-\	-ta	.	8ff\	-ta	.	.	.
!	!	!	!	!	!	!	!	!	!	!	!	!	!LO:LB:g=original	!	!	!LO:LB:g=original	!	!	!	!LO:LB:g=original
=72	=72	=72	=72	=72	=72	=72	=72	=72	=72	=72	=72	=72	=72	=72	=72	=72	=72	=72	=72	=72
4E-\	.	.	8r	.	8r	.	2.ryy	.	.	2.ryy	.	.	4g\	tu	.	4ee-\	tu	.	8r	8r
.	.	.	8e-/L	.	8b-/	.	.	.	.	.	.	.	.	.	.	.	.	.	8ee-\L	8gg\L
8E-\L	.	.	8b-/	.	8gg\L	.	.	.	.	.	.	.	4r	.	.	4r	.	.	8gg\	8bb-\
8F\	.	.	8b-/J	.	8gg\J	.	.	.	.	.	.	.	.	.	.	.	.	.	8gg\J	8bb-\J
8G\	.	.	16b-/LL	.	16gg\LL	.	.	.	.	.	.	.	4r	.	.	4r	.	.	16gg\LL	16bb-\LL
.	.	.	16a-/	.	16ff\	.	.	.	.	.	.	.	.	.	.	.	.	.	16ff\	16aa-\
8E-\J	.	.	16b-/	.	16gg\	.	.	.	.	.	.	.	.	.	.	.	.	.	16ee-\	16gg\
.	.	.	16g/JJ	.	16ee-\JJ	.	.	.	.	.	.	.	.	.	.	.	.	.	16gg\JJ	16bb-\JJ
=73	=73	=73	=73	=73	=73	=73	=73	=73	=73	=73	=73	=73	=73	=73	=73	=73	=73	=73	=73	=73
4A-\	.	.	4cc\	.	4cc\	.	2.ryy	.	.	2.ryy	.	.	4r	.	.	4r	.	.	4aa-\	4ccc\
4F\	.	.	4c/	.	4c/	.	.	.	.	.	.	.	8a-\	be-	.	8ff\	be-	.	4r	4r
.	.	.	.	.	.	.	.	.	.	.	.	.	8g\	-ne-	.	8ee-\	-ne-	.	.	.
4r	.	.	4r	.	4r	.	.	.	.	.	.	.	8a-\	-dic-	.	8ff\	-dic-	.	4r	4r
.	.	.	.	.	.	.	.	.	.	.	.	.	8g\	-ta	.	8ee-\	-ta	.	.	.
=74	=74	=74	=74	=74	=74	=74	=74	=74	=74	=74	=74	=74	=74	=74	=74	=74	=74	=74	=74	=74
!	!	!	!LO:N:vis=0	!	!LO:N:vis=0	!	!	!	!	!	!	!	!	!	!	!	!	!	!LO:N:vis=00	!LO:N:vis=00
8B-\L	5_ 3_	.	1.r	.	1.r	.	2.ryy	.	.	2.ryy	.	.	4.f\	tu	.	4.dd\	tu	.	0.r	0.r
8A-\	.	.	.	.	.	.	.	.	.	.	.	.	.	.	.	.	.	.	.	.
8B-\	.	.	.	.	.	.	.	.	.	.	.	.	.	.	.	.	.	.	.	.
8A-\	.	.	.	.	.	.	.	.	.	.	.	.	8f\	in	.	8dd\	in	.	.	.
8G\	6 3	.	.	.	.	.	.	.	.	.	.	.	4g\	mu-	.	4ee-\	mu-	.	.	.
8E-\J	.	.	.	.	.	.	.	.	.	.	.	.	.	.	.	.	.	.	.	.
=75	=75	=75	=75	=75	=75	=75	=75	=75	=75	=75	=75	=75	=75	=75	=75	=75	=75	=75	=75	=75
!LO:TX:a:t=P:problem=mixed beam	!	!	!	!	!	!	!	!	!	!	!	!	!	!	!	!	!	!	!	!
8A-\L	6_ 5_	.	.	.	.	.	2.ryy	.	.	2.ryy	.	.	4f\	-li-	.	(8ff\L	-li-	.	.	.
8F\	.	.	.	.	.	.	.	.	.	.	.	.	.	.	.	8ee-\J)	.	.	.	.
8B-\	.	.	.	.	.	.	.	.	.	.	.	.	4.f\	-e-	.	4ee-\	-e-	.	.	.
8A-\	.	.	.	.	.	.	.	.	.	.	.	.	.	.	.	.	.	.	.	.
8B-\	3	.	.	.	.	.	.	.	.	.	.	.	.	.	.	4dd\	-ri-	.	.	.
8BB-/J	.	.	.	.	.	.	.	.	.	.	.	.	8f\	-ri-	.	.	.	.	.	.
!LO:LB:g=original	!	!	!	!	!	!	!	!	!	!	!	!	!	!	!	!	!	!	!	!
=76	=76	=76	=76	=76	=76	=76	=76	=76	=76	=76	=76	=76	=76	=76	=76	=76	=76	=76	=76	=76
4E-\	.	.	2.r	.	2.r	.	2.ryy	.	.	2.ryy	.	.	4g\	-bus	.	4ee-\	-bus	.	.	.
4EE-/	.	.	.	.	.	.	.	.	.	.	.	.	8b-\	be-	.	8gg\	be-	.	.	.
.	.	.	.	.	.	.	.	.	.	.	.	.	8a-\	-ne-	.	8ff\	-ne-	.	.	.
4r	.	.	.	.	.	.	.	.	.	.	.	.	8b-\	-di-	.	8gg\	-di-	.	.	.
.	.	.	.	.	.	.	.	.	.	.	.	.	8a-\	-cta	.	8ff\	-cta	.	.	.
=77	=77	=77	=77	=77	=77	=77	=77	=77	=77	=77	=77	=77	=77	=77	=77	=77	=77	=77	=77	=77
4E-\	.	.	8r	.	8r	.	2.ryy	.	.	2.ryy	.	.	4g\	tu	.	4ee-\	tu	.	.	.
.	.	.	8e-/L	.	8b-\L	.	.	.	.	.	.	.	.	.	.	.	.	.	.	.
8E-\L	.	.	8b-/	.	8gg\	.	.	.	.	.	.	.	4r	.	.	4r	.	.	.	.
8F\	.	.	8b-/J	.	8gg\J	.	.	.	.	.	.	.	.	.	.	.	.	.	.	.
8G\	.	.	16b-/LL	.	16gg\LL	.	.	.	.	.	.	.	4r	.	.	4r	.	.	.	.
.	.	.	16a-/	.	16ff\	.	.	.	.	.	.	.	.	.	.	.	.	.	.	.
8E-\J	.	.	16b-/	.	16gg\	.	.	.	.	.	.	.	.	.	.	.	.	.	.	.
.	.	.	16g/JJ	.	16ee-\JJ	.	.	.	.	.	.	.	.	.	.	.	.	.	.	.
=78	=78	=78	=78	=78	=78	=78	=78	=78	=78	=78	=78	=78	=78	=78	=78	=78	=78	=78	=78	=78
!	!	!	!	!	!	!	!	!	!	!	!	!	!	!	!	!	!	!	!LO:N:vis=00	!LO:N:vis=00
4A-\	.	.	4cc\	.	4cc\	.	2.ryy	.	.	2.ryy	.	.	4r	.	.	4r	.	.	0.r	0.r
4F\	.	.	4c/	.	4c/	.	.	.	.	.	.	.	8a-\	be-	.	8ff\	be-	.	.	.
.	.	.	.	.	.	.	.	.	.	.	.	.	8g\	-ne-	.	8ee-\	-ne-	.	.	.
4r	.	.	4r	.	4r	.	.	.	.	.	.	.	8a-\	-dic-	.	8ff\	-dic-	.	.	.
.	.	.	.	.	.	.	.	.	.	.	.	.	8g\	-ta	.	8ee-\	-ta	.	.	.
=79	=79	=79	=79	=79	=79	=79	=79	=79	=79	=79	=79	=79	=79	=79	=79	=79	=79	=79	=79	=79
!	!	!	!LO:N:vis=0	!	!LO:N:vis=0	!	!	!	!	!	!	!	!	!	!	!	!	!	!	!
8B-\L	5_ 7_	.	1.r	.	1.r	.	2.ryy	.	.	2.ryy	.	.	4.f\	tu	.	4.dd\	tu	.	.	.
8A-\	.	.	.	.	.	.	.	.	.	.	.	.	.	.	.	.	.	.	.	.
8B-\	.	.	.	.	.	.	.	.	.	.	.	.	.	.	.	.	.	.	.	.
8A-\	.	.	.	.	.	.	.	.	.	.	.	.	8f\	in	.	8dd\	in	.	.	.
8G\	6 3	.	.	.	.	.	.	.	.	.	.	.	4g\	mu-	.	4ee-\	mu-	.	.	.
8E-\J	.	.	.	.	.	.	.	.	.	.	.	.	.	.	.	.	.	.	.	.
!	!	!	!	!	!	!	!	!	!	!	!	!	!LO:LB:g=original	!	!	!LO:LB:g=original	!	!	!	!
=80	=80	=80	=80	=80	=80	=80	=80	=80	=80	=80	=80	=80	=80	=80	=80	=80	=80	=80	=80	=80
!LO:TX:a:t=P:problem=mixed beam	!	!	!	!	!	!	!	!	!	!	!	!	!	!	!	!	!	!	!	!
8A-\L	.	.	.	.	.	.	2.ryy	.	.	2.ryy	.	.	4f\	-li-	.	8ff\L	-li-	.	.	.
8F\	.	.	.	.	.	.	.	.	.	.	.	.	.	.	.	8ee-\J	.	.	.	.
8B-\	.	.	.	.	.	.	.	.	.	.	.	.	4.f\	-e-	.	4ee-\	-e-	.	.	.
8A-\	.	.	.	.	.	.	.	.	.	.	.	.	.	.	.	.	.	.	.	.
8B-\	.	.	.	.	.	.	.	.	.	.	.	.	.	.	.	4dd\	-ri-	.	.	.
8BB-/J	.	.	.	.	.	.	.	.	.	.	.	.	8e-\	-ri-	.	.	.	.	.	.
=81	=81	=81	=81	=81	=81	=81	=81	=81	=81	=81	=81	=81	=81	=81	=81	=81	=81	=81	=81	=81
4E-\	.	.	2.r	.	2.r	.	2.ryy	.	.	2.ryy	.	.	4e-\	-bus	.	4ee-\	-bus	.	.	.
4r	.	.	.	.	.	.	.	.	.	.	.	.	8g\	be-	.	8b-\	be-	.	.	.
.	.	.	.	.	.	.	.	.	.	.	.	.	8f\	-ne-	.	8a-\	-ne-	.	.	.
4r	.	.	.	.	.	.	.	.	.	.	.	.	8g\	-di-	.	8b-\	-di-	.	.	.
.	.	.	.	.	.	.	.	.	.	.	.	.	8f\	-cta	.	8a-\	-cta	.	.	.
!	!	!	!	!	!LO:LB:g=original	!	!	!	!	!	!	!	!	!	!	!	!	!	!	!
=82	=82	=82	=82	=82	=82	=82	=82	=82	=82	=82	=82	=82	=82	=82	=82	=82	=82	=82	=82	=82
!	!	!	!	!	!	!	!	!	!	!	!	!	!	!	!	!	!	!	!LO:N:vis=0	!LO:N:vis=0
4E-\	.	.	8r	.	8r	.	2.ryy	.	.	2.ryy	.	.	4e-\	tu	.	4g/	tu	.	1.r	1.r
.	.	.	16e-/LL	.	16e-/LL	.	.	.	.	.	.	.	.	.	.	.	.	.	.	.
.	.	.	16f/JJ	.	16f/JJ	.	.	.	.	.	.	.	.	.	.	.	.	.	.	.
8E-\L	.	.	8e-/L	.	8e-/L	.	.	.	.	.	.	.	4r	.	.	4r	.	.	.	.
8F\	.	.	8e-/J	.	8e-/J	.	.	.	.	.	.	.	.	.	.	.	.	.	.	.
8G\	.	.	8e-/L	.	8e-/L	.	.	.	.	.	.	.	4r	.	.	4r	.	.	.	.
8E-\J	.	.	16d/L	.	16d/L	.	.	.	.	.	.	.	.	.	.	.	.	.	.	.
.	.	.	16e-/JJ	.	16e-/JJ	.	.	.	.	.	.	.	.	.	.	.	.	.	.	.
!	!	!	!LO:LB:g=original	!	!	!	!	!	!	!	!	!	!	!	!	!	!	!	!	!
=83	=83	=83	=83	=83	=83	=83	=83	=83	=83	=83	=83	=83	=83	=83	=83	=83	=83	=83	=83	=83
!	!	!	!	!	!	!	!	!	!	!	!	!	!LO:N:vis=00	!	!	!	!	!	!	!
4A-\	6	.	8f/L	.	8f/L	.	2.ryy	.	.	2.ryy	.	.	0.r	.	.	0.r	.	.	.	.
.	.	.	16f/L	.	16f/L	.	.	.	.	.	.	.	.	.	.	.	.	.	.	.
.	.	.	16g/JJ	.	16g/JJ	.	.	.	.	.	.	.	.	.	.	.	.	.	.	.
8A-\L	.	.	8f/L	.	8f/L	.	.	.	.	.	.	.	.	.	.	.	.	.	.	.
8F\J	.	.	8f/J	.	8f/J	.	.	.	.	.	.	.	.	.	.	.	.	.	.	.
8D/L	.	.	8f/L	.	8f/L	.	.	.	.	.	.	.	.	.	.	.	.	.	.	.
8BB-/J	.	.	16e-/L	.	16e-/L	.	.	.	.	.	.	.	.	.	.	.	.	.	.	.
.	.	.	16f/JJ	.	16f/JJ	.	.	.	.	.	.	.	.	.	.	.	.	.	.	.
=84	=84	=84	=84	=84	=84	=84	=84	=84	=84	=84	=84	=84	=84	=84	=84	=84	=84	=84	=84	=84
2E-\	.	.	8g/L	.	8g/L	.	2.ryy	.	.	2.ryy	.	.	.	.	.	.	.	.	8g/L	8ee-\L
.	.	.	8b-/J	.	8b-/J	.	.	.	.	.	.	.	.	.	.	.	.	.	16g/L	16ee-\L
.	.	.	.	.	.	.	.	.	.	.	.	.	.	.	.	.	.	.	16b-/JJ	16ff\JJ
.	.	.	8ee-\L	.	8ee-\L	.	.	.	.	.	.	.	.	.	.	.	.	.	8g/L	8ee-\L
.	.	.	8b-\J	.	8b-\J	.	.	.	.	.	.	.	.	.	.	.	.	.	8g/J	8ee-\J
4E-\	.	.	8gg\L	.	8gg\L	.	.	.	.	.	.	.	.	.	.	.	.	.	8g/L	8ee-\L
.	.	.	16ff\L	.	16ff\L	.	.	.	.	.	.	.	.	.	.	.	.	.	16e-/L	16b-\L
.	.	.	16ee-\JJ	.	16ee-\JJ	.	.	.	.	.	.	.	.	.	.	.	.	.	16g/JJ	16ee-\JJ
=85	=85	=85	=85	=85	=85	=85	=85	=85	=85	=85	=85	=85	=85	=85	=85	=85	=85	=85	=85	=85
2B-\	.	.	8ff\L	.	8ff\L	.	2.ryy	.	.	2.ryy	.	.	.	.	.	.	.	.	8b-/L	8ff\L
.	.	.	8b-\	.	8b-\	.	.	.	.	.	.	.	.	.	.	.	.	.	16b-/L	16ff\L
.	.	.	.	.	.	.	.	.	.	.	.	.	.	.	.	.	.	.	16ee-/JJ	16gg\JJ
.	.	.	8dd\	.	8dd\	.	.	.	.	.	.	.	.	.	.	.	.	.	8b-/L	8ff\L
.	.	.	8ff\J	.	8ff\J	.	.	.	.	.	.	.	.	.	.	.	.	.	8b-/J	8ff\J
4BB-/	7	.	16aa-\LL	.	16aa-\LL	.	.	.	.	.	.	.	.	.	.	.	.	.	8b-/L	8ff\L
.	.	.	16gg\	.	16gg\	.	.	.	.	.	.	.	.	.	.	.	.	.	.	.
.	.	.	16aa-\	.	16aa-\	.	.	.	.	.	.	.	.	.	.	.	.	.	16g/L	16ee-\L
.	.	.	16ff\JJ	.	16ff\JJ	.	.	.	.	.	.	.	.	.	.	.	.	.	16b-/JJ	16ff\JJ
=86	=86	=86	=86	=86	=86	=86	=86	=86	=86	=86	=86	=86	=86	=86	=86	=86	=86	=86	=86	=86
2E-\	.	.	12gg\L	.	12gg\L	.	2.ryy	.	.	2.ryy	.	.	.	.	.	.	.	.	8ee-\L	8gg\L
.	.	.	12aa-\	.	12aa-\	.	.	.	.	.	.	.	.	.	.	.	.	.	.	.
.	.	.	.	.	.	.	.	.	.	.	.	.	.	.	.	.	.	.	8gg\J	8bb-\
.	.	.	12bb-\J	.	12bb-\J	.	.	.	.	.	.	.	.	.	.	.	.	.	.	.
!	!	!	!	!	!	!	!	!	!	!	!	!	!	!	!	!	!	!	!LO:TX:a:t=P:problem=mixed beam	!
.	.	.	12ee-\L	.	12ee-\L	.	.	.	.	.	.	.	.	.	.	.	.	.	8g/L	8ee-\
.	.	.	12ff\	.	12ff\	.	.	.	.	.	.	.	.	.	.	.	.	.	.	.
.	.	.	.	.	.	.	.	.	.	.	.	.	.	.	.	.	.	.	8ee-\J	8gg\
.	.	.	12gg\J	.	12gg\J	.	.	.	.	.	.	.	.	.	.	.	.	.	.	.
*	*	*	*	*	*Xtuplet	*	*	*	*	*	*	*	*	*	*	*	*	*	*	*
4A-\	6 5	.	12cc\L	.	12cc\L	.	.	.	.	.	.	.	.	.	.	.	.	.	8ff\L	8aa-\
.	.	.	12dd\	.	12dd\	.	.	.	.	.	.	.	.	.	.	.	.	.	.	.
.	.	.	.	.	.	.	.	.	.	.	.	.	.	.	.	.	.	.	8ee-\J	8gg\J
.	.	.	12ee-\J	.	12ee-\J	.	.	.	.	.	.	.	.	.	.	.	.	.	.	.
!LO:PB:g=original	!	!	!	!	!	!	!	!	!	!	!	!	!	!	!	!	!	!	!	!
=87	=87	=87	=87	=87	=87	=87	=87	=87	=87	=87	=87	=87	=87	=87	=87	=87	=87	=87	=87	=87
!	!	!	!	!	!	!	!	!	!	!	!	!	!LO:N:vis=00	!	!	!	!	!	!	!
4B-\	.	.	8dd\L	.	8dd\L	.	2.ryy	.	.	2.ryy	.	.	0.r	.	.	0.r	.	.	8b-/L	8ff\L
.	.	.	8b-\J	.	8b-\J	.	.	.	.	.	.	.	.	.	.	.	.	.	16b-/L	16ff\L
.	.	.	.	.	.	.	.	.	.	.	.	.	.	.	.	.	.	.	16b-/JJ	16ff\JJ
8r	.	.	16ff\LL	.	16aa-\LL	.	.	.	.	.	.	.	.	.	.	.	.	.	8b-/L	8ff\L
.	.	.	16ee-\	.	16gg\	.	.	.	.	.	.	.	.	.	.	.	.	.	.	.
!LO:TX:a:t=P:problem=mixed beam	!	!	!	!	!	!	!	!	!	!	!	!	!	!	!	!	!	!	!	!
8BB-/L	7	.	16dd\	.	16ff\	.	.	.	.	.	.	.	.	.	.	.	.	.	8b-/J	8ff\J
.	.	.	16ee-\JJ	.	16gg\JJ	.	.	.	.	.	.	.	.	.	.	.	.	.	.	.
!	!	!	!	!	!LO:LB:g=original	!	!	!	!	!	!	!	!	!	!	!	!	!	!LO:LB:g=original	!
!	!	!	!	!	!	!	!	!	!	!	!	!	!	!	!	!	!	!	!LO:TX:a:t=P:problem=mixed beam	!
8B-\	.	.	16ff\LL	.	16aa-\LL	.	.	.	.	.	.	.	.	.	.	.	.	.	8b-/L	8ff\L
.	.	.	16ee-\	.	16gg\	.	.	.	.	.	.	.	.	.	.	.	.	.	.	.
8BB-/J	.	.	16ff\	.	16aa-\	.	.	.	.	.	.	.	.	.	.	.	.	.	8ff\J	8bb-\J
.	.	.	16dd\JJ	.	16ff\JJ	.	.	.	.	.	.	.	.	.	.	.	.	.	.	.
=88	=88	=88	=88	=88	=88	=88	=88	=88	=88	=88	=88	=88	=88	=88	=88	=88	=88	=88	=88	=88
4E-\	.	.	16b-/LL	.	16gg\LL	.	2.ryy	.	.	2.ryy	.	.	.	.	.	.	.	.	16gg\LL	16bb-\LL
.	.	.	16a-/	.	16ff\	.	.	.	.	.	.	.	.	.	.	.	.	.	16ff\	16aa-\
.	.	.	16g/	.	16ee-\	.	.	.	.	.	.	.	.	.	.	.	.	.	16ee-\	16gg\
.	.	.	16a-/JJ	.	16ff\JJ	.	.	.	.	.	.	.	.	.	.	.	.	.	16ff\JJ	16aa-\JJ
!LO:TX:a:t=P:problem=mixed beam	!	!	!	!	!	!	!	!	!	!	!	!	!	!	!	!	!	!	!	!
8G\L	.	.	16b-/LL	.	16gg\LL	.	.	.	.	.	.	.	.	.	.	.	.	.	16gg\LL	16bb-\LL
.	.	.	16a-/	.	16ff\	.	.	.	.	.	.	.	.	.	.	.	.	.	16ff\	16aa-\
8A-\	.	.	16b-/	.	16gg\	.	.	.	.	.	.	.	.	.	.	.	.	.	16gg\	16bb-\
.	.	.	16g/JJ	.	16ee-\JJ	.	.	.	.	.	.	.	.	.	.	.	.	.	16ee-\JJ	16gg\JJ
8B-\	.	.	4fT/	.	8.dd\L	.	.	.	.	.	.	.	.	.	.	.	.	.	8.b-/L	8.ff\L
8BB-/J	4	.	.	.	.	.	.	.	.	.	.	.	.	.	.	.	.	.	.	.
.	3	.	.	.	16dd\Jk	.	.	.	.	.	.	.	.	.	.	.	.	.	16b-/Jk	16ff\Jk
!	!	!	!LO:LB:g=original	!	!	!	!	!	!	!	!	!	!	!	!	!	!	!	!	!LO:N:vis=00
=89	=89	=89	=89	=89	=89	=89	=89	=89	=89	=89	=89	=89	=89	=89	=89	=89	=89	=89	=89	=89
!	!	!	!	!	!LO:TX:a:t=P:problem=mixed beam	!	!	!	!	!	!	!	!	!	!	!	!	!	!	!
4E-\	.	.	8e-/L	.	8ee-\L	.	2.ryy	.	.	2.ryy	.	.	.	.	.	.	.	.	8g/L	8ee-\L
.	.	.	16e-/L	.	16e-/L	.	.	.	.	.	.	.	.	.	.	.	.	.	16g/L	16ee-\L
.	.	.	16f/JJ	.	16f/JJ	.	.	.	.	.	.	.	.	.	.	.	.	.	16b-/JJ	16ff\JJ
8E-\L	.	.	8e-/L	.	8e-/L	.	.	.	.	.	.	.	.	.	.	.	.	.	8g/L	8ee-\L
8F\	.	.	8e-/J	.	8e-/J	.	.	.	.	.	.	.	.	.	.	.	.	.	8g/J	8ee-\J
8G\	.	.	8e-/L	.	8e-/L	.	.	.	.	.	.	.	.	.	.	.	.	.	8g/L	8ee-\L
8E-\J	.	.	16d/L	.	16d/L	.	.	.	.	.	.	.	.	.	.	.	.	.	16b-/L	16ee-\L
.	.	.	16e-/JJ	.	16e-/JJ	.	.	.	.	.	.	.	.	.	.	.	.	.	16g/JJ	16ff\JJ
=90	=90	=90	=90	=90	=90	=90	=90	=90	=90	=90	=90	=90	=90	=90	=90	=90	=90	=90	=90	=90
4B-\	.	.	8f/L	.	8f/L	.	2.ryy	.	.	2.ryy	.	.	.	.	.	.	.	.	8b-/L	8ff\L
.	.	.	16f/L	.	16f/L	.	.	.	.	.	.	.	.	.	.	.	.	.	16b-/L	16ff\L
.	.	.	16g/JJ	.	16g/JJ	.	.	.	.	.	.	.	.	.	.	.	.	.	16ee-/JJ	16gg\JJ
!LO:TX:a:t=P:problem=mixed beam	!	!	!	!	!	!	!	!	!	!	!	!	!	!	!	!	!	!	!	!
8G\L	6	.	8f/L	.	8f/L	.	.	.	.	.	.	.	.	.	.	.	.	.	8b-/L	8ff\L
8A-\	.	.	8f/J	.	8f/J	.	.	.	.	.	.	.	.	.	.	.	.	.	8b-/J	8ff\J
8B-\	.	.	8f/L	.	8f/L	.	.	.	.	.	.	.	.	.	.	.	.	.	8b-/L	8ff\L
8BB-/J	4 3	.	16e-/L	.	16e-/L	.	.	.	.	.	.	.	.	.	.	.	.	.	16ee-/L	16gg\L
.	.	.	16f/JJ	.	16f/JJ	.	.	.	.	.	.	.	.	.	.	.	.	.	16b-/JJ	16ff\JJ
=91	=91	=91	=91	=91	=91	=91	=91	=91	=91	=91	=91	=91	=91	=91	=91	=91	=91	=91	=91	=91
4E-\	.	.	4g/	.	4g/	.	2.ryy	.	.	2.ryy	.	.	2.r	.	.	2.r	.	.	8g/L	8ee-\L
.	.	.	.	.	.	.	.	.	.	.	.	.	.	.	.	.	.	.	16g/L	16b-\L
.	.	.	.	.	.	.	.	.	.	.	.	.	.	.	.	.	.	.	16g/JJ	16b-\JJ
4r	.	.	4r	.	4r	.	.	.	.	.	.	.	.	.	.	.	.	.	8g/L	8b-/L
.	.	.	.	.	.	.	.	.	.	.	.	.	.	.	.	.	.	.	8g/J	8b-/J
4r	.	.	4r	.	4r	.	.	.	.	.	.	.	.	.	.	.	.	.	4e-/	4g/
*clefC1	*	*	*	*	*	*	*	*	*	*	*	*	*	*	*	*	*	*	*	*
!	!	!	!	!	!LO:TX:b:i:t=Volti Subito	!	!	!	!	!	!	!	!	!	!	!	!	!	!	!
!	!	!	!	!	!LO:PB:g=original	!	!LO:LB:g=original	!	!	!LO:LB:g=original	!	!	!	!	!	!	!	!	!	!
=92||	=92||	=92||	=92||	=92||	=92||	=92||	=92||	=92||	=92||	=92||	=92||	=92||	=92||	=92||	=92||	=92||	=92||	=92||	=92||	=92||
*k[-b-e-a-]	*	*	*	*	*	*	*	*	*	*	*	*	*	*	*	*	*	*	*	*
*M2/2	*	*	*M2/2	*	*M2/2	*	*M2/2	*	*	*M2/2	*	*	*M2/2	*	*	*M2/2	*	*	*M2/2	*M2/2
*met(c|)	*	*	*met(c|)	*	*met(c|)	*	*met(c|)	*	*	*met(c|)	*	*	*met(c|)	*	*	*met(c|)	*	*	*met(c|)	*met(c|)
!LO:SIC:o=:v:nadmiarowe bemole	!	!	!	!	!	!	!	!	!	!	!	!	!	!	!	!	!	!	!	!
!LO:TX:b:i:t=Tut(ti)	!	!	!	!	!	!	!	!	!	!	!	!	!	!	!	!	!	!	!	!
!LO:TX:b:i:t=Et benedictus.	!	!	!LO:TX:b:i:t=Et benedictus	!	!LO:TX:i:a:t=Allabr&colon;(eve)	!	!	!	!	!	!	!	!	!	!	!	!	!	!LO:TX:a:i:t=allab(reve).	!LO:TX:a:t=allab(reve)
!LO:TX:a:t=Alla breve	!	!	!LO:TX:i:a:t=Allabreve Tut(ti)	!	!LO:TX:b:i:t=Et benedictus	!	!LO:TX:a:t=allab&colon;	!	!	!LO:TX:a:t=allab&colon;	!	!	!LO:TX:a:t=allb&colon;	!	!	!LO:TX:a:t=allabreve	!	!	!LO:TX:b:i:t=Et benedictus	!LO:TX:b:i:t=Et benedictus
1b-\	.	.	0r	.	1b-\	.	00r	.	.	00r	.	.	0r	.	.	1b-\	Et	.	00r	00r
=93	=93	=93	=93	=93	=93	=93	=93	=93	=93	=93	=93	=93	=93	=93	=93	=93	=93	=93	=93	=93
2cc\	.	.	.	.	2cc\	.	.	.	.	.	.	.	.	.	.	2cc\	be-	.	.	.
2dd\	.	.	.	.	2dd\	.	.	.	.	.	.	.	.	.	.	2dd\	-ne-	.	.	.
!	!	!	!LO:TX:b:t=Volti Subito	!	!	!	!	!	!	!	!	!	!	!	!	!	!	!	!	!
!	!	!	!LO:PB:g=original	!	!	!	!	!	!	!	!	!	!	!	!	!	!	!	!	!
=94	=94	=94	=94	=94	=94	=94	=94	=94	=94	=94	=94	=94	=94	=94	=94	=94	=94	=94	=94	=94
*^	*	*	*	*	*	*	*	*	*	*	*	*	*	*	*	*	*	*	*	*
4ee-/	1e-\	.	.	1e-/	.	4ee-\	.	.	.	.	.	.	.	1e-\	Et	.	4ee-\	-di-	.	.	.
4ee-/	.	.	.	.	.	4ee-\	.	.	.	.	.	.	.	.	.	.	4ee-\	-ctus	.	.	.
4b-/	.	.	.	.	.	4b-/	.	.	.	.	.	.	.	.	.	.	4b-\	fru-	.	.	.
[4ee-/	.	.	.	.	.	2ee-\	.	.	.	.	.	.	.	.	.	.	2ee-\	-ctus	.	.	.
=95	=95	=95	=95	=95	=95	=95-	=95	=95	=95	=95	=95	=95	=95	=95	=95	=95	=95-	=95	=95	=95	=95
!	!	!	!	!	!	!LO:SIC:s=:v:brak kreski takt.	!	!	!	!	!	!	!	!	!	!	!LO:SIC:s=:v:brak kreski takt.	!	!	!	!
4ee-/]	2f\	.	.	2f/	.	.	.	.	.	.	.	.	.	2f\	be-	.	.	.	.	.	.
2dd/	.	.	.	.	.	2dd\	.	.	.	.	.	.	.	.	.	.	2dd\	Ven-	.	.	.
.	2g\	.	.	2g/	.	.	.	.	.	.	.	.	.	2g\	-ne-	.	.	.	.	.	.
8ee-/L	.	.	.	.	.	8ee-\L	.	.	.	.	.	.	.	.	.	.	(8ee-\L	-tris	.	.	.
8dd/J	.	.	.	.	.	8dd\J	.	.	.	.	.	.	.	.	.	.	8dd\J)	.	.	.	.
!LO:LB:g=original	!	!	!	!	!	!	!	!	!	!	!	!	!	!	!	!	!	!	!	!	!
=96	=96	=96	=96	=96	=96	=96	=96	=96	=96	=96	=96	=96	=96	=96	=96	=96	=96	=96	=96	=96	=96
4cc/	4a-\	.	.	4a-/	.	4cc\	.	00r	.	.	0r	.	.	4a-\	-di-	.	4cc\	tu-	.	00r	00r
4cc/	4a-\	.	.	4a-/	.	4cc\	.	.	.	.	.	.	.	4a-\	-ctus	.	4cc\	-i	.	.	.
4ee-/	4e-\	.	.	4e-/	.	4ee-\	.	.	.	.	.	.	.	4e-\	fru-	.	4ee-\	be-	.	.	.
4cc/	4a-\	.	.	2a-/	.	4cc\	.	.	.	.	.	.	.	2a-\	-ctus	.	4cc\	-ne-	.	.	.
!	!	!	!	!	!	!	!	!	!	!	!	!	!	!	!	!	!LO:LB:g=original	!	!	!	!
=97	=97	=97	=97	=97-	=97	=97	=97	=97	=97	=97	=97	=97	=97	=97-	=97	=97	=97	=97	=97	=97	=97
!LO:SIC:s=:v:dźwięk przesunięty	!	!	!	!LO:SIC:s=:v:brak kreski takt.	!	!	!	!	!	!	!	!	!	!LO:SIC:s=:v:brak kreski takt.	!	!	!	!	!	!	!
2b-/	4a-\	.	.	.	.	2b-/	.	.	.	.	.	.	.	.	.	.	2b-\	-dic-	.	.	.
.	2g\	.	.	2g/	.	.	.	.	.	.	.	.	.	2g\	Ven-	.	.	.	.	.	.
2cc/	.	.	.	.	.	2cc\	.	.	.	.	.	.	.	.	.	.	2cc\	-tus	.	.	.
.	8a-\L	.	.	8a-/L	.	.	.	.	.	.	.	.	.	8a-\L	-tris	.	.	.	.	.	.
.	8g\J	.	.	8g/J	.	.	.	.	.	.	.	.	.	8g\J	.	.	.	.	.	.	.
*v	*v	*	*	*	*	*	*	*	*	*	*	*	*	*	*	*	*	*	*	*	*
=98	=98	=98	=98	=98	=98	=98	=98	=98	=98	=98	=98	=98	=98	=98	=98	=98	=98	=98	=98	=98
*clefC4	*	*	*	*	*	*	*	*	*	*	*	*	*	*	*	*	*	*	*	*
*k[b-e-a-]	*	*	*	*	*	*	*	*	*	*	*	*	*	*	*	*	*	*	*	*
1B-\	.	.	4f/	.	4dd\	.	.	.	.	1B-\	Et	.	4f\	tu-	.	4dd\	fru-	.	.	.
.	.	.	4f/	.	4dd\	.	.	.	.	.	.	.	4f\	-i	.	4dd\	-ctus	.	.	.
!	!	!	!	!	!	!	!	!	!	!	!	!	!LO:LB:g=original	!	!	!	!	!	!	!
.	.	.	4f/	.	4b-\	.	.	.	.	.	.	.	4f\	fru-	.	4b-\	ven-	.	.	.
.	.	.	[<4b-\	.	4dd\	.	.	.	.	.	.	.	2b-\	-ctus	.	4dd\	-tris	.	.	.
=99	=99	=99	=99	=99	=99	=99	=99	=99	=99	=99	=99	=99	=99	=99	=99	=99	=99	=99	=99	=99
!	!	!	!	!	!	!	!	!	!	!	!	!	!LO:SIC:s=:v:brak kreski takt.	!	!	!	!	!	!	!
2c\	7	.	4b-/]	.	2ee-\	.	.	.	.	2c\	be-	.	.	.	.	(2ee-\	tu-	.	.	.
.	6	.	2a-/	.	.	.	.	.	.	.	.	.	2a-\	Ven-	.	.	.	.	.	.
.	5	.	.	.	.	.	.	.	.	.	.	.	.	.	.	.	.	.	.	.
2d\	6	.	.	.	4dd\	.	.	.	.	2d\	-ne-	.	.	.	.	4dd\	.	.	.	.
.	5	.	8b-/L	.	4cc\	.	.	.	.	.	.	.	8b-\L	-tris	.	4cc\)	.	.	.	.
.	.	.	8a-/J	.	.	.	.	.	.	.	.	.	8a-\J	.	.	.	.	.	.	.
=100	=100	=100	=100	=100	=100	=100	=100	=100	=100	=100	=100	=100	=100	=100	=100	=100	=100	=100	=100	=100
*clefF4	*	*	*	*	*	*	*	*	*	*	*	*	*	*	*	*	*	*	*	*
*k[b-e-a-]	*	*	*	*	*	*	*	*	*	*	*	*	*	*	*	*	*	*	*	*
1E-\	.	.	4g/	.	2b-/	.	1E-\	Et	.	4e-\	-di-	.	4g\	tu-	.	2b-\	-i	.	0r	0r
.	.	.	4g/	.	.	.	.	.	.	4e-\	-ctus	.	4g\	-i	.	.	.	.	.	.
.	.	.	4e-/	.	2r	.	.	.	.	4B-\	fru-	.	4e-\	be-	.	2r	.	.	.	.
.	.	.	4g/	.	.	.	.	.	.	2e-\	-ctus	.	4g\	-ne-	.	.	.	.	.	.
!	!	!	!	!	!LO:LB:g=original	!	!	!	!	!	!	!	!	!	!	!	!	!	!	!
=101	=101	=101	=101	=101	=101	=101	=101	=101	=101	=101-	=101	=101	=101	=101	=101	=101	=101	=101	=101	=101
!	!	!	!	!	!	!	!	!	!	!LO:SIC:s=:v:brak kreski takt.	!	!	!	!	!	!	!	!	!	!
2F\	7	.	2a-/	.	1r	.	2F\	be-	.	.	.	.	(2a-\	-di-	.	1r	.	.	.	.
.	6	.	.	.	.	.	.	.	.	2d\	Ven-	.	.	.	.	.	.	.	.	.
2G\	5	.	4g/	.	.	.	2G\	-ne-	.	.	.	.	4g\	.	.	.	.	.	.	.
.	6	.	4f/	.	.	.	.	.	.	(8e-\L	-tris	.	4f\)	.	.	.	.	.	.	.
.	.	.	.	.	.	.	.	.	.	8d\J)	.	.	.	.	.	.	.	.	.	.
=102	=102	=102	=102	=102	=102	=102	=102	=102	=102	=102	=102	=102	=102	=102	=102	=102	=102	=102	=102	=102
!	!	!	!	!	!LO:SIC:s=:v:brak kreski takt.	!	!	!	!	!	!	!	!	!	!	!	!	!	!	!
4A-\	.	.	2e-/	.	2r	.	4A-\	-di-	.	4c\	tu-	.	2e-\	-ctus	.	2r	.	.	2r	1ee-\
4A-\	.	.	.	.	.	.	4A-\	-ctus	.	4c\	-i	.	.	.	.	.	.	.	.	.
4E-\	.	.	2r	.	2cc\	.	4E-\	fru-	.	4e-\	be-	.	2r	.	.	2cc\	Et	.	2e-/	.
[<4A-\	.	.	.	.	.	.	2A-\	-ctus	.	4c\	-ne-	.	.	.	.	.	.	.	.	.
=103	=103	=103	=103	=103	=103	=103	=103-	=103	=103	=103	=103	=103	=103	=103	=103	=103	=103	=103	=103	=103
!	!	!	!	!	!	!	!LO:SIC:s=:v:brak kreski takt.	!	!	!	!	!	!	!	!	!	!	!	!	!
4A-\]	4 2	.	2r	.	2dd\	.	.	.	.	2B-\	-dic-	.	2r	.	.	2dd\	be-	.	2b-/	2ff\
2G\	6 3	.	.	.	.	.	2G\	ven-	.	.	.	.	.	.	.	.	.	.	.	.
!	!	!	!	!	!LO:SIC:s=:v:kreska takt. przechodzi przez główkę nuty	!	!	!	!	!	!	!	!	!	!	!	!	!	!	!
.	.	.	2e-/	.	1ee-\	.	.	.	.	2c\	-tus	.	(2e-\	fruc-	.	2ee-\	-ne-	.	2ee-\	2gg\
8A-\L	x 3	.	.	.	.	.	(8A-\L	-tris	.	.	.	.	.	.	.	.	.	.	.	.
8G\J	.	.	.	.	.	.	8G\J)	.	.	.	.	.	.	.	.	.	.	.	.	.
=104	=104	=104	=104	=104	=104	=104	=104	=104	=104	=104	=104	=104	=104	=104	=104	=104	=104	=104	=104	=104
2F\	7	.	2f/	.	.	.	4F\	tu-	.	4c\	fruc-	.	2f\)	.	.	4ee-\	-dic-	.	4ff\	4aa-\
.	.	.	.	.	.	.	4F\	-i	.	4c\	-tus	.	.	.	.	4ee-\	-tus	.	4ff\	4aa-\
4F\	6	.	2f/	.	2dd\	.	4F\	fru-	.	4d\	ven-	.	2f\	-tus	.	4dd\	fruc-	.	4ff\	4aa-\
4B-\	3	.	.	.	.	.	2B-\	-ctus	.	4B-\	-tris	.	.	.	.	4dd\	-tus	.	8ee-\L	8gg\L
.	.	.	.	.	.	.	.	.	.	.	.	.	.	.	.	.	.	.	8b-\J	8ff\J
!LO:LB:g=original	!	!	!LO:LB:g=original	!	!	!	!	!	!	!	!	!	!	!	!	!	!	!	!LO:LB:g=original	!
=105	=105	=105	=105	=105	=105	=105	=105-	=105	=105	=105	=105	=105	=105	=105	=105	=105	=105	=105	=105	=105
!	!	!	!	!	!	!	!LO:SIC:s=:v:brak kreski takt.	!	!	!	!	!	!	!	!	!	!	!	!	!
4B-\	4 2	.	4g/	.	4ee-\	.	.	.	.	(2c\	tu-	.	4g\	ven-	.	4ee-\	ven-	.	4ee-\	4gg\
2A-\	6 3	.	4a-/	.	4ff\	.	2A-\	ven-	.	.	.	.	4a-\	-tris	.	4ff\	-tris	.	4ff\	4aa-\
.	4 2	.	2f/	.	2dd\	.	.	.	.	2B-\)	.	.	2f\	tu-	.	2dd\	tu-	.	4.b-/	4.ff\
8B-\L	3	.	.	.	.	.	(8B-\L	-tris	.	.	.	.	.	.	.	.	.	.	.	.
!	!	!	!	!	!	!	!	!	!	!	!	!	!	!	!	!	!	!	!	!LO:SIC:s=:v:ogonek w l. str.
8A-\J	.	.	.	.	.	.	8A-\J)	.	.	.	.	.	.	.	.	.	.	.	8b-/	8ff\
!	!	!	!	!	!	!	!	!	!	!LO:LB:g=original	!	!	!	!	!	!	!	!	!	!
=106	=106	=106	=106	=106	=106	=106	=106	=106	=106	=106	=106	=106	=106	=106	=106	=106	=106	=106	=106	=106
4G\	6	.	4g/	.	4ee-\	.	4G\	tu-	.	2B-\	-i	.	4g\	-i	.	4ee-\	-i	.	4ee-/	4gg\
4B-\	3	.	4dd\	.	4ff\	.	4B-\	-i	.	.	.	.	4f\	et	.	4dd\	et	.	8b-/L	8ff\L
.	.	.	.	.	.	.	.	.	.	.	.	.	.	.	.	.	.	.	8b-/J	8ff\J
4B-\	.	.	4dd\	.	4ff\	.	4B-\	be-	.	4B-\	be-	.	4f\	be-	.	4dd\	be-	.	8b-/L	8ff\L
.	.	.	.	.	.	.	.	.	.	.	.	.	.	.	.	.	.	.	8b-/	8ff\
4A-\	4 2	.	4dd\	.	4ff\	.	4A-\	-ne-	.	4B-\	-ne	.	4f\	-ne-	.	4dd\	-ne-	.	8b-/	8ff\
.	.	.	.	.	.	.	.	.	.	.	.	.	.	.	.	.	.	.	8b-/J	8ff\J
!	!	!	!	!	!	!	!	!	!	!	!	!	!	!	!	!LO:LB:g=original	!	!	!	!LO:LB:g=original
=107	=107	=107	=107	=107	=107	=107	=107	=107	=107	=107	=107	=107	=107	=107	=107	=107	=107	=107	=107	=107
4G\	6	.	4ee-\	.	4gg\	.	4G\	-dic-	.	4B-\	dic-	.	4g\	-dic-	.	4ee-\	-dic-	.	4ee-\	4ee-\
4E-\	.	.	4ee-\	.	4gg\	.	4E-\	-tus	.	4B-\	-tus	.	4g\	-tus	.	4ee-\	-tus	.	8e-/L	8e-/L
.	.	.	.	.	.	.	.	.	.	.	.	.	.	.	.	.	.	.	8e-/J	8e-/J
4c\	-	.	4ee-\	.	4gg\	.	4c\	fruc-	.	4c\	fruc-	.	4g\	fruc-	.	4ee-\	fruc-	.	8e-/L	8e-/L
.	.	.	.	.	.	.	.	.	.	.	.	.	.	.	.	.	.	.	8e-/	8e-/
4B-\	.	.	4dd\	.	4gg\	.	4B-\	-tus	.	4c\	-tus	.	4g\	-tus	.	4dd\	-tus	.	8e-/	8e-/
.	.	.	.	.	.	.	.	.	.	.	.	.	.	.	.	.	.	.	8e-/J	8e-/J
!	!	!	!	!	!	!	!LO:LB:g=original	!	!	!	!	!	!LO:LB:g=original	!	!	!	!	!	!	!
=108	=108	=108	=108	=108	=108	=108	=108	=108	=108	=108	=108	=108	=108	=108	=108	=108	=108	=108	=108	=108
4An\	6_ 5_	.	4ee-\	.	4ff\	.	4An\	ven-	.	4c\	ven-	.	4f\	ven-	.	4ee-\	ven-	.	4e-/	4e-/
4F\	.	.	4an/	.	4ff\	.	4F\	-tris	.	4c\	-tris	.	4f\	-tris	.	4ee-\	-tris	.	4e-/	4e-/
2B-'\|	.	.	2r	.	2r	.	2B-\	et	.	2r	.	.	2r	.	.	2r	.	.	2r	2r
=109	=109	=109	=109	=109	=109	=109	=109	=109	=109	=109	=109	=109	=109	=109	=109	=109	=109	=109	=109	=109
2B-'\|	.	.	1r	.	8r	.	2B-\	be-	.	2r	.	.	1r	.	.	0r	.	.	0r	0r
.	.	.	.	.	8b-\L	.	.	.	.	.	.	.	.	.	.	.	.	.	.	.
.	.	.	.	.	8cc\	.	.	.	.	.	.	.	.	.	.	.	.	.	.	.
.	.	.	.	.	8dd\J	.	.	.	.	.	.	.	.	.	.	.	.	.	.	.
2B-'\|	.	.	.	.	8ee-\L	.	2B-\	-ne-	.	2B-\	et	.	.	.	.	.	.	.	.	.
.	.	.	.	.	8ff\	.	.	.	.	.	.	.	.	.	.	.	.	.	.	.
.	.	.	.	.	8gg\	.	.	.	.	.	.	.	.	.	.	.	.	.	.	.
.	.	.	.	.	8aan\J	.	.	.	.	.	.	.	.	.	.	.	.	.	.	.
=110	=110	=110	=110	=110	=110	=110	=110	=110	=110	=110	=110	=110	=110	=110	=110	=110	=110	=110	=110	=110
4B-'\|	.	.	8r	.	2bb-\	.	4B-\	-dic-	.	2B-\	be-	.	2r	.	.	.	.	.	.	.
.	.	.	8b-\L	.	.	.	.	.	.	.	.	.	.	.	.	.	.	.	.	.
4BB-'/|	.	.	8cc\	.	.	.	4BB-/	-tus	.	.	.	.	.	.	.	.	.	.	.	.
.	.	.	8dd\J	.	.	.	.	.	.	.	.	.	.	.	.	.	.	.	.	.
4B-\	5_	.	8ee-\L	.	2r	.	4B-\	fruc-	.	2B-\	-ne-	.	2f\	et	.	.	.	.	.	.
.	.	.	8ff\	.	.	.	.	.	.	.	.	.	.	.	.	.	.	.	.	.
4B-\	.	.	8gg\	.	.	.	4B-\	-tus	.	.	.	.	.	.	.	.	.	.	.	.
.	x	.	8aan\J	.	.	.	.	.	.	.	.	.	.	.	.	.	.	.	.	.
!	!	!	!	!	!LO:LB:g=original	!	!	!	!	!	!	!	!	!	!	!	!	!	!	!
=111	=111	=111	=111	=111	=111	=111	=111	=111	=111	=111	=111	=111	=111	=111	=111	=111	=111	=111	=111	=111
!	!	!	!LO:TX:a:t=P:problem=mixed beam	!	!	!	!	!	!	!	!	!	!	!	!	!	!	!	!	!
4B-\	.	.	8bb-\L	.	8r	.	4B-\	ven-	.	4B-\	-dic-	.	2f\	be-	.	2r	.	.	1r	1r
.	.	.	8B-/	.	8B-/L	.	.	.	.	.	.	.	.	.	.	.	.	.	.	.
4BB-/	.	.	8c/	.	8c/	.	4BB-/	-tis	.	4F/	-tus	.	.	.	.	.	.	.	.	.
.	.	.	8d/J	.	8d/J	.	.	.	.	.	.	.	.	.	.	.	.	.	.	.
4B-\	4_ 3_	.	8e-/L	.	8e-/L	.	4B-\	tu-	.	4B-\	fruc-	.	2f\	-ne-	.	2dd\	et	.	.	.
.	.	.	8f/	.	8f/	.	.	.	.	.	.	.	.	.	.	.	.	.	.	.
4B-\	.	.	8g/	.	8g/	.	4B-\	-i	.	4B-\	-tus	.	.	.	.	.	.	.	.	.
.	x	.	8an/J	.	8an/J	.	.	.	.	.	.	.	.	.	.	.	.	.	.	.
=112	=112	=112	=112	=112	=112	=112	=112	=112	=112	=112	=112	=112	=112	=112	=112	=112	=112	=112	=112	=112
4B-\	.	.	8b-\L	.	8b-\L	.	4B-\	be-	.	4B-\	ven-	.	2.f\	-dic-	.	4dd\	be-	.	2r	2r
.	.	.	8dd\	.	8ff\	.	.	.	.	.	.	.	.	.	.	.	.	.	.	.
4An\	3	.	8dd\	.	8ff\	.	4An\	-ne-	.	4F/	-tris	.	.	.	.	4ff\	-ne-	.	.	.
.	.	.	8dd\J	.	8ff\J	.	.	.	.	.	.	.	.	.	.	.	.	.	.	.
4G\	6	.	8dd\L	.	8ff\L	.	4G\	-dic-	.	4B-\	fruc-	.	.	.	.	4ee-\	-dic-	.	4r	4r
.	.	.	8dd\	.	8ff\	.	.	.	.	.	.	.	.	.	.	.	.	.	.	.
4F\	6	.	8dd\	.	8ff\	.	4F\	-tus	.	4An/	-tus	.	4f\	-tus	.	4dd\	-tus	.	4ff\	4ff\
.	.	.	8dd\J	.	8ff\J	.	.	.	.	.	.	.	.	.	.	.	.	.	.	.
!	!	!	!LO:LB:g=original	!	!	!	!	!	!	!	!	!	!	!	!	!	!	!	!	!
=113	=113	=113	=113	=113	=113	=113	=113	=113	=113	=113	=113	=113	=113	=113	=113	=113	=113	=113	=113	=113
*	*	*	*	*	*	*	*	*	*	*	*ij	*	*	*	*	*	*	*	*	*
4E-\	6	.	4gg\	.	4ccc\	.	4E-\	fruc-	.	4G/	fruc-	.	4g\	fruc-	.	4cc\	fruc-	.	4gg\	4ccc\
4D\	6	.	4ff\	.	4bb-\	.	4D/	-tus	.	4B-\	-tus	.	4f\	-tus	.	4b-\	-tus	.	4ff\	4bb-\
*	*	*	*	*	*	*	*	*	*	*	*Xij	*	*	*	*	*	*	*	*	*
!LO:LB:g=original	!	!	!	!	!	!	!	!	!	!LO:LB:g=original	!	!	!	!	!	!	!	!	!	!
4C/	6\	.	4ee-\	.	4aan\	.	4C/	ven-	.	4c\	ven-	.	4e-\	ven-	.	4an\	ven-	.	4ee-\	4aaX\
4BB-/	.	.	4ff\	.	4bb-\	.	4BB-/	-tris	.	4d\	-tris	.	4f\	-tris	.	4b-\	-tris	.	4ff\	4bb-\
=114	=114	=114	=114	=114	=114	=114	=114	=114	=114	=114	=114	=114	=114	=114	=114	=114	=114	=114	=114	=114
4F\	n	.	4ff\	.	4aan\	.	4F\	tu-	.	4c\	tu-	.	4f\	tu-	.	4an\	tu-	.	4ff\	4aaX\
4FF/	.	.	4an/	.	4f/	.	4FF/	-i	.	4c\	-i	.	4f\	-i	.	4a\	-i	.	4ff\	4ff\
*clefC3	*	*	*	*	*	*	*	*	*	*	*	*	*	*	*	*	*	*	*	*
*k[b-e-a-]	*	*	*	*	*	*	*	*	*	*	*	*	*	*	*	*	*	*	*	*
2f'\|	.	.	2r	.	2r	.	2r	.	.	2f\	et	.	2r	.	.	2r	.	.	2r	2r
=115	=115	=115	=115	=115	=115	=115	=115	=115	=115	=115	=115	=115	=115	=115	=115	=115	=115	=115	=115	=115
2f'\|	.	.	1r	.	8r	.	0r	.	.	2f\	be-	.	2r	.	.	1r	.	.	0r	0r
.	.	.	.	.	8f/L	.	.	.	.	.	.	.	.	.	.	.	.	.	.	.
.	.	.	.	.	8g/	.	.	.	.	.	.	.	.	.	.	.	.	.	.	.
.	.	.	.	.	8an/J	.	.	.	.	.	.	.	.	.	.	.	.	.	.	.
2f'\|	.	.	.	.	8b-\L	.	.	.	.	2f\	-ne-	.	2f\	et	.	.	.	.	.	.
.	.	.	.	.	8cc\	.	.	.	.	.	.	.	.	.	.	.	.	.	.	.
.	.	.	.	.	8dd\	.	.	.	.	.	.	.	.	.	.	.	.	.	.	.
.	.	.	.	.	8ee-\J	.	.	.	.	.	.	.	.	.	.	.	.	.	.	.
=116	=116	=116	=116	=116	=116	=116	=116	=116	=116	=116	=116	=116	=116	=116	=116	=116	=116	=116	=116	=116
4f'\|	.	.	8r	.	2ff\	.	.	.	.	4f\	-dic-	.	2f\	be-	.	2r	.	.	.	.
.	.	.	8f/L	.	.	.	.	.	.	.	.	.	.	.	.	.	.	.	.	.
4F'/|	.	.	8g/	.	.	.	.	.	.	4F/	-tus	.	.	.	.	.	.	.	.	.
.	.	.	8an/J	.	.	.	.	.	.	.	.	.	.	.	.	.	.	.	.	.
4f\	5_	.	8b-\L	.	2r	.	.	.	.	4f\	fruc-	.	2f\	-ne-	.	2cc\	et	.	.	.
.	.	.	8cc\	.	.	.	.	.	.	.	.	.	.	.	.	.	.	.	.	.
4f\	.	.	8dd\	.	.	.	.	.	.	4f\	-tus	.	.	.	.	.	.	.	.	.
.	.	.	8ee-\J	.	.	.	.	.	.	.	.	.	.	.	.	.	.	.	.	.
=117	=117	=117	=117	=117	=117	=117	=117	=117	=117	=117	=117	=117	=117	=117	=117	=117	=117	=117	=117	=117
4f\	.	.	8ff\L	.	8r	.	2r	.	.	4f\	ven-	.	4f\	-dic-	.	2cc\	be-	.	1r	1r
.	.	.	8aa-\	.	8aa-\L	.	.	.	.	.	.	.	.	.	.	.	.	.	.	.
4F/	x	.	8aa-\	.	8aa-\	.	.	.	.	4F/	-tris	.	4c/	-tus	.	.	.	.	.	.
.	.	.	8aa-\J	.	8aa-\J	.	.	.	.	.	.	.	.	.	.	.	.	.	.	.
*clefF4	*	*	*	*	*	*	*	*	*	*	*	*	*	*	*	*	*	*	*	*
*k[b-e-a-]	*	*	*	*	*	*	*	*	*	*	*	*	*	*	*	*	*	*	*	*
4d\	7_ #_	.	8ff#X\L	.	8ff#X\L	.	4d\	be-	.	4f#X\	be-	.	4an\	be-	.	2cc\	-ne-	.	.	.
.	.	.	8ff#\	.	8ff#\	.	.	.	.	.	.	.	.	.	.	.	.	.	.	.
4c\	.	.	8ff#\	.	8ff#\	.	4c\	-ne-	.	4f#\	-ne-	.	4a\	-ne-	.	.	.	.	.	.
.	.	.	8ff#\J	.	8ff#\J	.	.	.	.	.	.	.	.	.	.	.	.	.	.	.
!	!	!	!	!	!LO:LB:g=original	!	!	!	!	!	!	!	!	!	!	!LO:PB:g=original	!	!	!	!
=118	=118	=118	=118	=118	=118	=118	=118	=118	=118	=118	=118	=118	=118	=118	=118	=118	=118	=118	=118	=118
!	!	!	!LO:TX:a:t=P:problem=mixed beam	!	!LO:TX:a:t=P:problem=mixed beam	!	!	!	!	!	!	!	!	!	!	!	!	!	!	!
4Bn\	6_ 5_	.	8gg/L	.	8gg\L	.	4Bn\	-dic-	.	4d\	-dic-	.	4g\	-dic-	.	4ff\	-dic-	.	4g/	4g/
.	.	.	8g/	.	8g/	.	.	.	.	.	.	.	.	.	.	.	.	.	.	.
4An\	.	.	8g/	.	8g/	.	4An\	-tus	.	4c\	-tus	.	4f\	-tus	.	4f/	-tus	.	8g/L	8g/L
.	.	.	8g/J	.	8g/J	.	.	.	.	.	.	.	.	.	.	.	.	.	8g/J	8g/J
!	!	!	!LO:TX:a:t=P:problem=mixed beam	!	!LO:TX:a:t=P:problem=mixed beam	!	!	!	!	!	!	!	!	!	!	!	!	!	!	!
4Bn\	.	.	8f/L	.	8f/L	.	4Bn\	fruc-	.	4d\	fruc-	.	4g\	fruc-	.	4ff\	fruc-	.	8g/L	8g/L
.	x	.	8ff\	.	8ff\	.	.	.	.	.	.	.	.	.	.	.	.	.	8g/	8g/
4G\	.	.	8ff\	.	8ff\	.	4G\	-tus	.	4Bn\	-tus	.	4g\	-tus	.	4ff\	-tus	.	8g/	8g/
.	.	.	8ff\J	.	8ff\J	.	.	.	.	.	.	.	.	.	.	.	.	.	8g/J	8g/J
!	!	!	!	!	!	!	!	!	!	!	!	!	!LO:PB:g=original	!	!	!	!	!	!	!
=119	=119	=119	=119	=119	=119	=119	=119	=119	=119	=119	=119	=119	=119	=119	=119	=119	=119	=119	=119	=119
!	!	!	!LO:TX:a:t=P:problem=mixed beam	!	!LO:TX:a:t=P:problem=mixed beam	!	!	!	!	!	!	!	!	!	!	!	!	!	!	!
4c\	-	.	8ee-X\L	.	8ee-X\L	.	4c\	ven-	.	4c\	ven-	.	4g\	ven-	.	4ee-\	ven-	.	4g/	4g/
.	.	.	8e-/	.	8e-/	.	.	.	.	.	.	.	.	.	.	.	.	.	.	.
4C/	.	.	8e-/	.	8e-/	.	4C/	-tris	.	4c\	-tris	.	4g\	-tris	.	4ee-\	-tris	.	4g/	4g/
.	.	.	8e-/J	.	8e-/J	.	.	.	.	.	.	.	.	.	.	.	.	.	.	.
!	!	!	!LO:TX:a:t=P:problem=mixed beam	!	!LO:TX:a:t=P:problem=mixed beam	!	!	!	!	!	!	!	!	!	!	!	!	!	!	!
*	*	*	*	*	*	*	*	*ij	*	*	*	*	*	*	*	*	*	*	*	*
4c\	7_ n3_	.	8en/L	.	8en/L	.	4c\	be-	.	4en\	be-	.	4g\	be-	.	4cc\	be-	.	2r	2r
.	.	.	8een\	.	8een\	.	.	.	.	.	.	.	.	.	.	.	.	.	.	.
4B-\	.	.	8ee\	.	8ee\	.	4B-\	-ne-	.	4e\	-ne-	.	4g\	-ne-	.	4cc\	-ne-	.	.	.
.	.	.	8ee\J	.	8ee\J	.	.	.	.	.	.	.	.	.	.	.	.	.	.	.
!	!	!	!LO:LB:g=original	!	!	!	!	!	!	!LO:LB:g=original	!	!	!	!	!	!	!	!	!LO:LB:g=original	!
=120	=120	=120	=120	=120	=120	=120	=120	=120	=120	=120	=120	=120	=120	=120	=120	=120	=120	=120	=120	=120
!	!	!	!LO:TX:a:t=P:problem=mixed beam	!	!LO:TX:a:t=P:problem=mixed beam	!	!	!	!	!	!	!	!	!	!	!	!	!	!	!
4An\	6_ -5_	.	8ff\L	.	8ff\L	.	4An\	-dic-	.	4c\	-dic-	.	4f\	-dic-	.	4ee-\	-dic-	.	4ff\	4ff\
.	.	.	8f/	.	8f/	.	.	.	.	.	.	.	.	.	.	.	.	.	.	.
4G\	.	.	8f/	.	8f/	.	4G\	-tus	.	4B-X\	-tus	.	4e-\	-tus	.	4e-/	-tus	.	8ff\L	8ff\L
.	.	.	8f/J	.	8f/J	.	.	.	.	.	.	.	.	.	.	.	.	.	8ff\J	8ff\J
!	!	!	!LO:TX:a:t=P:problem=mixed beam	!	!LO:TX:a:t=P:problem=mixed beam	!	!	!	!	!	!	!	!	!	!	!	!	!	!	!
4An\	.	.	8e-X/L	.	8e-X/L	.	4An\	fruc-	.	4c\	fruc-	.	4f\	fruc-	.	4ee-\	fruc-	.	8ff\L	8ff\L
.	.	.	8ee-\	.	8ee-\	.	.	.	.	.	.	.	.	.	.	.	.	.	8ff\	8ff\
4F\	.	.	8ee-\	.	8ee-\	.	4F\	-tus	.	4An/	-tus	.	4f\	-tus	.	4ee-\	-tus	.	8ff\	8ff\
.	.	.	8ee-\J	.	8ee-/J	.	.	.	.	.	.	.	.	.	.	.	.	.	8ff\J	8ff\J
!LO:LB:g=original	!	!	!	!	!	!	!	!	!	!	!	!	!	!	!	!	!	!	!	!LO:LB:g=original
=121	=121	=121	=121	=121	=121	=121	=121	=121	=121	=121	=121	=121	=121	=121	=121	=121	=121	=121	=121	=121
!	!	!	!LO:TX:a:t=P:problem=mixed beam	!	!LO:TX:a:t=P:problem=mixed beam	!	!	!	!	!	!	!	!	!	!	!	!	!	!	!
4B-\	5 3	.	8dd\L	.	8dd\L	.	4B-\	ven-	.	4B-\	ven-	.	4f\	ven-	.	4dd\	ven-	.	4ff\	4ff\
.	.	.	8d/	.	8d/	.	.	.	.	.	.	.	.	.	.	.	.	.	.	.
4BB-/	.	.	8d/	.	8d/	.	4BB-/	-tris	.	4B-\	-tris	.	4f\	-tris	.	4dd\	-tris,	.	4ff\	4ff\
.	.	.	8d/J	.	8d/J	.	.	.	.	.	.	.	.	.	.	.	.	.	.	.
*	*	*	*	*	*	*	*	*Xij	*	*	*	*	*	*	*	*	*	*	*	*
!	!	!	!LO:TX:a:t=P:problem=mixed beam	!	!LO:TX:a:t=P:problem=mixed beam	!	!	!	!	!	!	!	!	!	!	!	!	!	!	!
4B-\	-7_ 3_	.	8d/L	.	8d/L	.	4B-\	be-	.	4d\	be-	.	4a-X\	be-	.	4b-\	be-	.	2r	2r
.	.	.	8aa-X\	.	8aa-X\	.	.	.	.	.	.	.	.	.	.	.	.	.	.	.
4A-X\	.	.	8aa-\	.	8aa-\	.	4A-X\	-ne-	.	4d\	-ne-	.	4f\	-ne-	.	4b-\	-ne-	.	.	.
.	.	.	8aa-\J	.	8aa-\J	.	.	.	.	.	.	.	.	.	.	.	.	.	.	.
=122	=122	=122	=122	=122	=122	=122	=122	=122	=122	=122	=122	=122	=122	=122	=122	=122	=122	=122	=122	=122
!	!	!	!LO:TX:a:t=P:problem=mixed beam	!	!	!	!	!	!	!	!	!	!	!	!	!	!	!	!	!
4G\	x 6	.	8bb-\L	.	8bb-\L	.	4G\	-dic-	.	4B-\	-dic-	.	4g\	-dic-	.	4ee-\	-dic-	.	4e-/	4e-/
.	.	.	8b-/	.	8b-\	.	.	.	.	.	.	.	.	.	.	.	.	.	.	.
4F\	x 6	.	8b-/	.	8b-\	.	4F\	-tus	.	4d\	-tus	.	4a-\	-tus	.	4dd\	-tus	.	8e-/L	8e-/L
.	.	.	8b-/J	.	8b-\J	.	.	.	.	.	.	.	.	.	.	.	.	.	8e-/J	8e-/J
!	!	!	!LO:TX:a:t=P:problem=mixed beam	!	!LO:TX:a:t=P:problem=mixed beam	!	!	!	!	!	!	!	!	!	!	!	!	!	!	!
4G\	x 6	.	8g/L	.	8g/L	.	4G\	fruc-	.	4B-\	fruc-	.	4g\	fruc-	.	4ee-\	fruc-	.	8e-/L	8e-/L
.	.	.	8gg\	.	8gg\	.	.	.	.	.	.	.	.	.	.	.	.	.	8e-/	8e-/
4E-\	.	.	8gg\	.	8gg\	.	4E-\	-tus	.	4e-\	-tus	.	4g\	-tus	.	4b-\	-tus	.	8e-/	8e-/
.	.	.	8gg\J	.	8gg\J	.	.	.	.	.	.	.	.	.	.	.	.	.	8e-/J	8e-/J
=123	=123	=123	=123	=123	=123	=123	=123	=123	=123	=123	=123	=123	=123	=123	=123	=123	=123	=123	=123	=123
4A-\	6_ 5_	.	8ff\L	.	8ff\L	.	4A-\	ven-	.	4c\	ven-	.	4f\	ven-	.	4cc\	ven-	.	4e-/	4e-/
.	.	.	8ff\	.	8ff\	.	.	.	.	.	.	.	.	.	.	.	.	.	.	.
4F\	.	.	8ff\	.	8ff\	.	4F\	-tris	.	4c\	-tris	.	4f\	-tris	.	(8ff\L	-tris	.	4b-/	4ff\
.	.	.	8ff\J	.	8ff\J	.	.	.	.	.	.	.	.	.	.	8ee-\J)	.	.	.	.
4B-\	.	.	8ee-\L	.	8ff\L	.	4B-\	tu-	.	2B-\	tu-	.	2f\	tu-	.	(4ee-\	Tu-	.	8b-/L	8ff\L
.	.	.	8ee-\	.	8ff\	.	.	.	.	.	.	.	.	.	.	.	.	.	8b-/	8ff\
4BB-/	4	.	8dd\	.	8ff\	.	4BB-/	-i	.	.	.	.	.	.	.	4dd\)	.	.	8ee-/	8gg\
.	3	.	8dd\J	.	8ff\J	.	.	.	.	.	.	.	.	.	.	.	.	.	8b-/J	8ff\J
!	!	!	!	!	!	!	!LO:LB:g=original	!	!	!	!	!	!	!	!	!	!	!	!	!
=124	=124	=124	=124	=124	=124	=124	=124	=124	=124	=124	=124	=124	=124	=124	=124	=124	=124	=124	=124	=124
1E-\'|	.	.	2ee-\	.	2gg\	.	1E-\	Et	.	2B-\	-i	.	2g\	-i	.	2ee-\	-i	.	2g/	2ee-\
.	.	.	2r	.	2r	.	.	.	.	2r	.	.	2r	.	.	2r	.	.	2r	2r
!	!	!	!	!	!LO:LB:g=original	!	!	!	!	!	!	!	!	!	!	!LO:LB:g=original	!	!	!	!
=125	=125	=125	=125	=125	=125	=125	=125	=125	=125	=125	=125	=125	=125	=125	=125	=125	=125	=125	=125	=125
2F'\|	.	.	00r	.	00r	.	2F\	be-	.	0r	.	.	00r	.	.	00r	.	.	00r	00r
2G'\|	.	.	.	.	.	.	2G\	-ne-	.	.	.	.	.	.	.	.	.	.	.	.
=126	=126	=126	=126	=126	=126	=126	=126	=126	=126	=126	=126	=126	=126	=126	=126	=126	=126	=126	=126	=126
4A-'\|	.	.	.	.	.	.	4A-\	-dic-	.	.	.	.	.	.	.	.	.	.	.	.
4A-'\|	.	.	.	.	.	.	4A-\	-tus	.	.	.	.	.	.	.	.	.	.	.	.
4E-'\|	.	.	.	.	.	.	4E-\	fruc-	.	.	.	.	.	.	.	.	.	.	.	.
[<4A-'\|	.	.	.	.	.	.	2A-\	-tus	.	.	.	.	.	.	.	.	.	.	.	.
=127	=127	=127	=127	=127	=127	=127	=127-	=127	=127	=127	=127	=127	=127	=127	=127	=127	=127	=127	=127	=127
*^	*	*	*	*	*	*	*	*	*	*	*	*	*	*	*	*	*	*	*	*
!LO:SIC:s=:v:dźwięk przesunięty w prawo	!	!	!	!	!	!	!	!LO:SIC:s=:v:brak kreski takt.	!	!	!	!	!	!	!	!	!	!	!	!	!
1B-/	4A-\]	.	.	.	.	.	.	.	.	.	1B-\	Et	.	.	.	.	.	.	.	.	.
.	2G\	.	.	.	.	.	.	2G\	ven-	.	.	.	.	.	.	.	.	.	.	.	.
.	8A-\L	.	.	.	.	.	.	8A-\L	-tris	.	.	.	.	.	.	.	.	.	.	.	.
.	8G\J	.	.	.	.	.	.	8G\J	.	.	.	.	.	.	.	.	.	.	.	.	.
=128	=128	=128	=128	=128	=128	=128	=128	=128	=128	=128	=128	=128	=128	=128	=128	=128	=128	=128	=128	=128	=128
2c/	2F\	.	.	.	.	.	.	4F\	tu-	.	2c\	be-	.	.	.	.	.	.	.	.	.
.	.	.	.	.	.	.	.	4F,<\	-i	.	.	.	.	.	.	.	.	.	.	.	.
2d/	4F\	.	.	.	.	.	.	4F\	fruc-	.	2d\	-ne-	.	.	.	.	.	.	.	.	.
.	4B-\	.	.	.	.	.	.	(2B-\	-tus	.	.	.	.	.	.	.	.	.	.	.	.
*v	*v	*	*	*	*	*	*	*	*	*	*	*	*	*	*	*	*	*	*	*	*
!	!	!	!	!	!	!	!	!	!	!	!LO:LB:g=original	!	!	!	!	!	!	!	!	!
=129	=129	=129	=129	=129	=129	=129	=129	=129-	=129	=129	=129	=129	=129	=129	=129	=129	=129	=129	=129	=129
!	!	!	!	!	!	!	!LO:SIC:s=:v:brak kreski takt.	!	!	!	!	!	!	!	!	!	!	!	!	!
4B-\	6 4	.	1e-/	.	00r	.	.	.	.	4e-\	-dic-	.	1e-\	Et	.	00r	.	.	00r	00r
4A-\	.	.	.	.	.	.	4A-\)	.	.	4e-\	-tus	.	.	.	.	.	.	.	.	.
!LO:LB:g=original	!	!	!	!	!	!	!	!	!	!	!	!	!	!	!	!	!	!	!	!
4G\	.	.	.	.	.	.	4G\	ven-	.	4B-\	fruc-	.	.	.	.	.	.	.	.	.
4F\	.	.	.	.	.	.	4E-\	-tris	.	2e-\	-tus	.	.	.	.	.	.	.	.	.
=130	=130	=130	=130	=130	=130	=130	=130	=130	=130	=130-	=130	=130	=130	=130	=130	=130	=130	=130	=130	=130
!	!	!	!	!	!	!	!	!	!	!LO:SIC:s=:v:brak kreski takt.	!	!	!	!	!	!	!	!	!	!
2BB-/	5 4	.	2f/	.	.	.	4BB-/	tu-	.	.	.	.	2f\	be-	.	.	.	.	.	.
.	x 3	.	.	.	.	.	4BB-/	-i	.	2d\	ven-	.	.	.	.	.	.	.	.	.
4G\	6	.	2g/	.	.	.	4G\	be-	.	.	.	.	2g\	-ne-	.	.	.	.	.	.
4E-\	.	.	.	.	.	.	4E-\	-ne-	.	(8e-\L	-tris	.	.	.	.	.	.	.	.	.
.	.	.	.	.	.	.	.	.	.	8d\J)	.	.	.	.	.	.	.	.	.	.
!	!	!	!	!	!	!	!	!	!	!	!	!	!LO:LB:g=original	!	!	!	!	!	!	!
=131	=131	=131	=131	=131	=131	=131	=131	=131	=131	=131	=131	=131	=131	=131	=131	=131	=131	=131	=131	=131
2F\	7	.	4a-/	.	.	.	2F\	-dic-	.	4c\	tu-	.	4a-\	-dic-	.	.	.	.	.	.
.	.	.	4a-/	.	.	.	.	.	.	4e-\	-i	.	4a-\	-tus	.	.	.	.	.	.
2A-\	5	.	4e-/	.	.	.	2A-\	-tus	.	4e-\	be-	.	4e-\	fruc-	.	.	.	.	.	.
.	.	.	2a-/	.	.	.	.	.	.	4c\	-ne-	.	2a-\	-tus	.	.	.	.	.	.
=132	=132	=132	=132-	=132	=132	=132	=132	=132	=132	=132	=132	=132	=132-	=132	=132	=132	=132	=132	=132	=132
!	!	!	!LO:SIC:s=:v:brak kreski takt. przekreśl półnuta	!	!	!	!	!	!	!	!	!	!LO:SIC:s=:v:brak kreski takt.	!	!	!	!	!	!	!
2E-\	5 4	.	.	.	.	.	4E-\	fruc-	.	4B-\	-dic-	.	.	.	.	.	.	.	.	.
!	!	!	!LO:LB:g=original	!	!	!	!	!	!	!	!	!	!	!	!	!	!	!	!	!
.	x 3	.	2g/	.	.	.	4G\	-tus	.	4B-\	-tus	.	2g\	ven-	.	.	.	.	.	.
*	*	*	*	*	*	*	*	*	*	*	*ij	*	*	*	*	*	*	*	*	*
2AA-/	7	.	.	.	.	.	4E-\	ven-	.	4c\	be-	.	.	.	.	.	.	.	.	.
.	6	.	8a-/L	.	.	.	4AA-/	-tris	.	4c\	-ne-	.	(8a-\L	-tris	.	.	.	.	.	.
.	.	.	8g/J	.	.	.	.	.	.	.	.	.	8g\J)	.	.	.	.	.	.	.
!	!	!	!	!	!	!	!LO:LB:g=original	!	!	!	!	!	!	!	!	!	!	!	!	!
=133	=133	=133	=133	=133	=133	=133	=133	=133	=133	=133	=133	=133	=133	=133	=133	=133	=133	=133	=133	=133
2BB-/	.	.	4f/	.	1b-\	.	4BB-/	tu-	.	4d\	-dic-	.	4f\	tu-	.	1b-\	Et	.	0r	0r
.	.	.	4f/	.	.	.	4BB-/	-i	.	4d\	-tus	.	4f\	-i	.	.	.	.	.	.
*	*	*	*	*	*	*	*	*	*	*	*Xij	*	*	*	*	*	*	*	*	*
2B-\	.	.	4d/	.	.	.	4F\	fruc-	.	4d\	fruc-	.	4d\	fruc-	.	.	.	.	.	.
.	.	.	4f/	.	.	.	2B-\	-tus	.	4d\	-tus	.	4f\	-tus	.	.	.	.	.	.
=134	=134	=134	=134	=134	=134	=134	=134-	=134	=134	=134	=134	=134	=134	=134	=134	=134	=134	=134	=134	=134
!	!	!	!	!	!	!	!LO:SIC:s=:v:brak kreski takt.	!	!	!	!	!	!	!	!	!	!	!	!	!
4B-\	4 2	.	4g/	.	2cc\	.	.	.	.	4c\	ven-	.	4g\	ven-	.	2cc\	be-	.	.	.
2A-\	x 3	.	4a-/	.	.	.	2A-\	ven-	.	4c\	-tris	.	4a-\	-tris	.	.	.	.	.	.
.	4 2_	.	2f/	.	2dd\	.	.	.	.	2B-\	tu-	.	2f\	tu-	.	2dd\	-ne-	.	.	.
8B-\L	.	.	.	.	.	.	(8B-\L	-tris	.	.	.	.	.	.	.	.	.	.	.	.
8A-\J	.	.	.	.	.	.	8A-\J)	.	.	.	.	.	.	.	.	.	.	.	.	.
=135	=135	=135	=135	=135	=135	=135	=135	=135	=135	=135	=135	=135	=135	=135	=135	=135	=135	=135	=135	=135
2G\	6	.	2g/	.	4ee-\	.	4G\	tu-	.	2B-\	-i	.	2g\	-i	.	4ee-\	-dic-	.	1gg\	1bb-\
.	.	.	.	.	4ee-\	.	4E-\	-i	.	.	.	.	.	.	.	4ee-\	-tus	.	.	.
2E-\	.	.	2g/	.	4b-/	.	2E-\	Et	.	4r	.	.	2g\	et	.	4b-\	fruc-	.	.	.
.	.	.	.	.	2ee-\	.	.	.	.	4B-\	et	.	.	.	.	2ee-\	-tus	.	.	.
!	!	!	!	!	!	!	!	!	!	!LO:LB:g=original	!	!	!	!	!	!	!	!	!	!
=136	=136	=136	=136	=136	=136-	=136	=136	=136	=136	=136	=136	=136	=136	=136	=136	=136-	=136	=136	=136	=136
!	!	!	!	!	!LO:SIC:s=:v:brak kreski takt.	!	!	!	!	!	!	!	!	!	!	!LO:SIC:s=:v:brak kreski takt.	!	!	!	!
2F\	7	.	2g/	.	.	.	2F\	be-	.	4A-/	be-	.	2a-\	be-	.	.	.	.	2ff\	2aa-\
.	6	.	.	.	2dd\	.	.	.	.	4A-/	-ne-	.	.	.	.	2dd\	ven-	.	.	.
2G\	5	.	4g/	.	.	.	2G\	-ne-	.	2B-\	-dic-	.	(4g\	-ne-	.	.	.	.	2b-/	4gg\
.	6	.	4f/	.	8ee-\L	.	.	.	.	.	.	.	4f\)	.	.	8ee-\L	-tris	.	.	4ff\
.	.	.	.	.	8dd\J	.	.	.	.	.	.	.	.	.	.	8dd\J	.	.	.	.
=137	=137	=137	=137	=137	=137	=137	=137	=137	=137	=137	=137	=137	=137	=137	=137	=137	=137	=137	=137	=137
4A-\	.	.	4e-/	.	4cc\	.	4A-\	-dic-	.	2A-/	-tus	.	4e-\	-dic-	.	4cc\	tu-	.	4ee-\	4ee-\
4A-\	.	.	4cc\	.	4ee-\	.	4A-\	-tus	.	.	.	.	4e-\	-tus	.	4cc\	-i	.	4aa-\	4ccc\
4E-\	.	.	4ee-\	.	4gg\	.	4E-\	fruc-	.	4B-\	be-	.	4g\	be-	.	4ee-\	be-	.	4gg\	4bb-\
4A-\	.	.	4cc\	.	4ee-\	.	2A-\	-tus	.	4A-/	-ne-	.	4e-\	-ne-	.	4cc\	-ne-	.	8ff\L	4ccc\
.	.	.	.	.	.	.	.	.	.	.	.	.	.	.	.	.	.	.	8ee-\J	.
=138	=138	=138	=138	=138	=138	=138	=138-	=138	=138	=138	=138	=138	=138	=138	=138	=138	=138	=138	=138	=138
!	!	!	!	!	!	!	!LO:SIC:s=:v:brak kreski takt.	!	!	!	!	!	!	!	!	!	!	!	!	!
4A-\	4 2	.	2b-/	.	4ff\	.	.	.	.	2B-\	-dic-	.	4f\	-dic-	.	2b-\	-dic-	.	4ff\	2bb-\
2G\	6 3	.	.	.	4gg\	.	2G\	ven-	.	.	.	.	4g\	-tus	.	.	.	.	4gg\	.
.	6 4	.	2b-/	.	4ee-\	.	.	.	.	2e-\	-tus	.	4e-\	fruc-	.	2cc\	-tus	.	4ee-\	2ccc\
8A-\L	5_ 3_	.	.	.	4ee-\	.	(8A-\L	-tris	.	.	.	.	4e-\	-tus	.	.	.	.	4gg\	.
8G\J	.	.	.	.	.	.	8G\J)	.	.	.	.	.	.	.	.	.	.	.	.	.
!LO:LB:g=original	!	!	!	!	!	!	!	!	!	!	!	!	!LO:LB:g=original	!	!	!	!	!	!	!
=139	=139	=139	=139	=139	=139	=139	=139	=139	=139	=139	=139	=139	=139	=139	=139	=139	=139	=139	=139	=139
2F\	7	.	8cc\L	.	8aa-\L	.	4F\	tu-	.	2e-\	fruc-	.	2a-\	ven-	.	4cc\	fruc-	.	4aa-\	4ccc\
.	.	.	8cc\	.	8aa-\	.	.	.	.	.	.	.	.	.	.	.	.	.	.	.
.	.	.	8cc\	.	8aa-\	.	4F\	-i	.	.	.	.	.	.	.	4cc\	-tus	.	8aa-\L	4ccc\
.	.	.	8cc\J	.	8aa-\J	.	.	.	.	.	.	.	.	.	.	.	.	.	8gg\J	.
4B-\	3_	.	8dd\L	.	8ff\L	.	4B-\	fruc-	.	2d\	-tus	.	2f\	-tris	.	4.b-\	ven-	.	4ff\	4bb-\
.	.	.	8dd\	.	8ff\	.	.	.	.	.	.	.	.	.	.	.	.	.	.	.
4A-\	.	.	8dd\	.	8ff\	.	4A-\	-tus	.	.	.	.	.	.	.	.	.	.	4ff\	4ccc\
.	.	.	8dd\J	.	8ff\J	.	.	.	.	.	.	.	.	.	.	8b-\	-tris	.	.	.
!	!	!	!	!	!	!	!	!	!	!	!	!	!	!	!	!	!	!	!LO:LB:g=original	!LO:LB:g=original
=140	=140	=140	=140	=140	=140	=140	=140	=140	=140	=140	=140	=140	=140	=140	=140	=140	=140	=140	=140	=140
4G\	6	.	8b-\L	.	8gg\L	.	4G\	ven-	.	4e-\	ven-	.	2g\	tu-	.	2b-\	tu-	.	4gg\	4bb-\
.	.	.	8b-\	.	8gg\	.	.	.	.	.	.	.	.	.	.	.	.	.	.	.
4F\	6	.	8b-\	.	8gg\	.	4F\	-tris	.	4d\	-tris	.	.	.	.	.	.	.	8b-/L	8b-/L
.	.	.	8b-\J	.	8gg\J	.	.	.	.	.	.	.	.	.	.	.	.	.	8b-/J	8b-/J
!	!	!	!LO:LB:g=original	!	!	!	!LO:LB:g=original	!	!	!	!	!	!	!	!	!	!	!	!	!
4G\	6	.	8ee-\L	.	8gg\L	.	4G\	tu-	.	4e-\	tu-	.	2g\	-i	.	2b-\	-i	.	8b-/L	4b-/
.	.	.	8ee-\	.	8gg\	.	.	.	.	.	.	.	.	.	.	.	.	.	8b-/	.
4E-\	.	.	8ee-\	.	8gg\	.	4E-\	-i	.	4B-\	-i.	.	.	.	.	.	.	.	8b-/	4b-/
.	.	.	8ee-\J	.	8gg\J	.	.	.	.	.	.	.	.	.	.	.	.	.	8b-/J	.
!	!	!	!	!	!LO:LB:g=original	!	!	!	!	!	!	!	!	!	!	!	!	!	!	!
=141	=141	=141	=141	=141	=141	=141	=141	=141	=141	=141	=141	=141	=141	=141	=141	=141	=141	=141	=141	=141
1C/	6\ 4 3	.	8ee-\L	.	8aan\L	.	2.C/	A-	.	2.An/	A-	.	2f\	a-	.	2.ee-\	a-	.	2e-/	2ee-\
.	.	.	8ee-\	.	8aa\	.	.	.	.	.	.	.	.	.	.	.	.	.	.	.
.	.	.	8ee-\	.	8aa\	.	.	.	.	.	.	.	.	.	.	.	.	.	.	.
.	.	.	8ee-\J	.	8aa\J	.	.	.	.	.	.	.	.	.	.	.	.	.	.	.
!	!	!	!	!	!	!	!	!	!	!	!	!	!LO:N:xstem	!	!	!	!	!	!	!
.	.	.	8ee-\L	.	8ff\L	.	.	.	.	.	.	.	4e-\	.	.	.	.	.	2r	2r
.	.	.	8ee-\	.	8ff\	.	.	.	.	.	.	.	.	.	.	.	.	.	.	.
.	.	.	8ee-\	.	8ff\	.	4C/	-men	.	4A/	-men	.	4f\	-men	.	4ee-\	-men	.	.	.
.	.	.	8ee-\J	.	8ff\J	.	.	.	.	.	.	.	.	.	.	.	.	.	.	.
=142	=142	=142	=142	=142	=142	=142	=142	=142	=142	=142	=142	=142	=142	=142	=142	=142	=142	=142	=142	=142
2BB-/	.	.	2dd\	.	2ff\	.	2BB-/	a-	.	2B-\	a-	.	2f\	a-	.	2dd\	A-	.	2r	2r
!	!	!	!LO:SIC:s=:v:brak kreski takt. przekreśl całanuta	!	!	!	!	!	!	!	!	!	!	!	!	!	!	!	!	!
2AAn/	-7 3	.	1ff\	.	2gg-X\	.	2AAn/	-men	.	2c\	-men	.	2g-X\	-men	.	1ee-\	.	.	4r	4r
.	.	.	.	.	.	.	.	.	.	.	.	.	.	.	.	.	.	.	4e-/	4e-/
!	!	!	!	!	!	!	!	!	!	!LO:LB:g=original	!	!	!	!	!	!	!	!	!	!
=143	=143	=143	=143-	=143	=143	=143	=143	=143	=143	=143	=143	=143	=143	=143	=143	=143	=143	=143	=143	=143
!	!	!	!	!	!	!	!	!	!	!	!	!	!	!	!	!LO:SIC:s=:v:brak kreski takt.	!	!	!	!
1BB-/	5 4	.	.	.	2.ff\	.	1BB-/	A-	.	1B-\	A-	.	1f\	a-	.	.	.	.	4b-/	4b-/
.	.	.	.	.	.	.	.	.	.	.	.	.	.	.	.	.	.	.	8b-/L	8b-/L
.	.	.	.	.	.	.	.	.	.	.	.	.	.	.	.	.	.	.	8b-/J	8b-/J
.	x 3	.	2dd\	.	.	.	.	.	.	.	.	.	.	.	.	2dd\	.	.	8b-/L	8b-/L
.	.	.	.	.	.	.	.	.	.	.	.	.	.	.	.	.	.	.	8b-/	8b-/
.	.	.	.	.	4ff\	.	.	.	.	.	.	.	.	.	.	.	.	.	8b-/	8b-/
.	.	.	.	.	.	.	.	.	.	.	.	.	.	.	.	.	.	.	8b-/J	8b-/J
=144	=144	=144	=144	=144	=144	=144	=144	=144	=144	=144	=144	=144	=144	=144	=144	=144	=144	=144	=144	=144
2E-\	.	.	1ee-\;;	.	1gg\;	.	1E-\;;	-men.	.	1B-\;;	-men.	.	1e-\;;	-men	.	1ee-\;;	-men.	.	1g/	1b-\
2r;;	.	.	.	.	.	.	.	.	.	.	.	.	.	.	.	.	.	.	.	.
==	==	==	==	==	==	==	==	==	==	==	==	==	==	==	==	==	==	==	==;;:||:	==;;:||:
*-	*-	*-	*-	*-	*-	*-	*-	*-	*-	*-	*-	*-	*-	*-	*-	*-	*-	*-	*-	*-
!!!system-decoration: [(s1,s2)][(s3,s4,s5,s6)][(s7,s8)]s9
!!!RDF**kern: > = above
!!!RDF**kern: < = below
!!!RDF**dynam: p = piano
!!!RDF** dynam: f = forte
!!!EED: Leszek Kubiak
!!!EST: 2020-11-04
!!!ENC: Marcin Jachim
!!!END: 2020-05-02
!!!RDF**kern: | = vertical stroke
